!!!!SEGMENT: pl-wtm--r-704-m--020_moniuszko-stanislaw--widma-no-14.krn
!!!cenid: 18xx:3075
!!!COM: Moniuszko, Stanisław
!!!COM-rismID: pe30008351
!!!CDT: 1819/05/05-1872/06/04
!!!CNT: Polish
!!!GTL: Widma
!!!OTL: No. 14
!!!OMV: 020
!!!PDT: 1852
!!!AGN: Secular
!!!SMS-siglum: PL-Wtm
!!!SMS-shelfmark: R 704/M
!!!SMS-shelfwork: 001-020 G
!!!SMS-variant:
!!!SMS-altvar:
!!!NIFC-rismSourceID: 1001093778
!!!NIFC-rismChildID: 1001093778
!!!NIFC-islandoraID:
!!!URL-pdf-islandora:
!!!URL-scan:
!!!ONB-nifc: UWAGA: skany 0068-0074. Nie wpisywać tekstu rosyjskiego i samodzielnych dialogów poza krótkimi didaskaliami.
!!!OMD: allegro.
!!!AIN: 1 alto 3 empty 1 soprn 1 tenor
!!!key:
**kern	**kern	**dynam	**kern	**text	**text	**dynam	**kern	**text	**text	**dynam	**kern	**text	**text	**dynam	**kern	**text	**text	**dynam
*	*	*	*	*	*color:red	*	*	*	*color:red	*	*	*	*color:red	*	*	*	*color:red	*
*group2	*group2	*	*group1	*	*	*	*group1	*	*	*	*group1	*	*	*	*group1	*	*	*
*part6	*part5	*part5	*part4	*part4	*part4	*part4	*part3	*part3	*part3	*part3	*part2	*part2	*part2	*part2	*part1	*part1	*part1	*part1
*staff6	*staff5	*	*staff4	*staff4	*staff4	*	*staff3	*staff3	*staff3	*	*staff2	*staff2	*staff2	*	*staff1	*staff1	*staff1	*
*	*	*	*	*	*	*	*	*	*	*	*	*	*	*	*I""Chór.	*	*	*
*Iempty	*Iempty	*	*Iempty	*	*	*	*Itenor	*	*	*	*Ialto	*	*	*	*Isoprn	*	*	*
*I"F:P:	*I"F:P:	*	*I"[Basso]	*	*	*	*I"[Tenore]	*	*	*	*I"[Alto]	*	*	*	*I"[Soprano]	*	*	*
*clefF4	*clefG2	*	*clefF4	*	*	*	*clefGv2	*	*	*	*clefG2	*	*	*	*clefG2	*	*	*
*k[b-]	*k[b-]	*	*k[b-]	*	*	*	*k[b-]	*	*	*	*k[b-]	*	*	*	*k[b-]	*	*	*
*b:	*b:	*	*b:	*	*	*	*b:	*	*	*	*b:	*	*	*	*b:	*	*	*
*M3/4	*M3/4	*	*M3/4	*	*	*	*M3/4	*	*	*	*M3/4	*	*	*	*M3/4	*	*	*
=1	=1	=1	=1	=1	=1	=1	=1	=1	=1	=1	=1	=1	=1	=1	=1	=1	=1	=1
*kcancel	*kcancel	*	*kcancel	*	*	*	*kcancel	*	*	*	*kcancel	*	*	*	*kcancel	*	*	*
*^	*	*	*	*	*	*	*	*	*	*	*	*	*	*	*	*	*	*
!	!	!	!	!LO:TX:a:t=(&colon;niespokojnie&colon;)	!	!	!	!	!	!	!	!	!	!	!	!	!	!	!
!	!	!	!	!LO:TX:a:t=(con inquietudine):color=red	!	!	!	!	!	!	!	!	!	!	!	!	!	!	!
!LO:TX:b:i:B:t=Allegro.:note:podrkeślone	!	!	!LO:DY:B:t=mf.	!	!	!	!LO:DY:a:B:t=mf.	!	!	!	!	!	!	!	!	!	!	!	!
8D/L	2.r	2.r	mf	8D\	a	Ma	mf	2.r	.	.	.	2.r	.	.	.	2.r	.	.	.
8F/J	.	.	.	8F\	kto	chi	.	.	.	.	.	.	.	.	.	.	.	.	.
4.A^>/	.	.	.	4.A\	proś-	sor-	.	.	.	.	.	.	.	.	.	.	.	.	.
8G/	.	.	.	8G\	-by	-do e'al-	.	.	.	.	.	.	.	.	.	.	.	.	.
=2	=2	=2	=2	=2	=2	=2	=2	=2	=2	=2	=2	=2	=2	=2	=2	=2	=2	=2	=2
8F/L	4r	2.r	.	8F\	nie	-la	.	2.r	.	.	.	2.r	.	.	.	2.r	.	.	.
8D/J	.	.	.	8D\	po-	sua	.	.	.	.	.	.	.	.	.	.	.	.	.
!	!	!	!	!LO:S:color=gray	!	!	!	!	!	!	!	!	!	!	!	!	!	!	!
(<4E/	(<4EE\	.	.	(>4E\	-słu-	vo-	.	.	.	.	.	.	.	.	.	.	.	.	.
8AA/)	8AAA\)	.	.	8AA/)	-cha	-ce	.	.	.	.	.	.	.	.	.	.	.	.	.
8r	8ryy	.	.	8r	.	.	.	.	.	.	.	.	.	.	.	.	.	.	.
=3	=3	=3	=3	=3	=3	=3	=3	=3	=3	=3	=3	=3	=3	=3	=3	=3	=3	=3	=3
(<8D/L	2.r	2.r	.	8D\	w i-	ce-	.	2.r	.	.	.	2.r	.	.	.	2.r	.	.	.
8F/J)	.	.	.	8F\	-mie	-de-	.	.	.	.	.	.	.	.	.	.	.	.	.
4.A^>/	.	.	.	4.A\	Oj-	-rã	.	.	.	.	.	.	.	.	.	.	.	.	.
8G/	.	.	.	8G\	-ca,	nan-	.	.	.	.	.	.	.	.	.	.	.	.	.
=4	=4	=4	=4	=4	=4	=4	=4	=4	=4	=4	=4	=4	=4	=4	=4	=4	=4	=4	=4
8F/L	4r	2.r	.	8F\	Sy-	-zi	.	2.r	.	.	.	2.r	.	.	.	2.r	.	.	.
8D/J	.	.	.	8D\	-na,	la	.	.	.	.	.	.	.	.	.	.	.	.	.
!	!	!	!	!LO:S:color=gray	!	!	!	!	!	!	!	!	!	!	!	!	!	!	!
(<4E/	(<4EE\	.	.	(>4E\	Du-	Cro-	.	.	.	.	.	.	.	.	.	.	.	.	.
8AA/)	8AAA\)	.	.	8AA/)	-cha!	-ce	.	.	.	.	.	.	.	.	.	.	.	.	.
8r	8ryy	.	.	8r	.	.	.	.	.	.	.	.	.	.	.	.	.	.	.
*v	*v	*	*	*	*	*	*	*	*	*	*	*	*	*	*	*	*	*	*
!!LO:LB:g=original
=5	=5	=5	=5	=5	=5	=5	=5	=5	=5	=5	=5	=5	=5	=5	=5	=5	=5	=5
4DD/ 4D	2.r	<[	4D^>\	czy	del	.	2.r	.	.	.	2.r	.	.	.	2.r	.	.	.
8EE/L 8E/	.	.	8E\	wi-	San-	.	.	.	.	.	.	.	.	.	.	.	.	.
8FF/ 8F/	.	.	8F\	-dzisz	-to	.	.	.	.	.	.	.	.	.	.	.	.	.
8GG/ 8G/	.	.	8G\	pań-	Sic-	.	.	.	.	.	.	.	.	.	.	.	.	.
8AA/J 8A/	.	.	8A\	-ski	-ten-	.	.	.	.	.	.	.	.	.	.	.	.	.
=6	=6	=6	=6	=6	=6	=6	=6	=6	=6	=6	=6	=6	=6	=6	=6	=6	=6	=6
*	*	*	*2\right	*	*	*	*	*	*	*	*	*	*	*	*	*	*	*
!	!	!LO:DY:rj:t=fp.	!	!	!	!	!	!	!	!	!	!	!	!	!	!	!	!
2.BB-/ [>2.B-	2.r	fp	[>2.B-X\	Krzyż!	-tor!...	.	2.r	.	.	.	2.r	.	.	.	2.r	.	.	.
=7	=7	=7	=7	=7	=7	=7	=7	=7	=7	=7	=7	=7	=7	=7	=7	=7	=7	=7
*^	*	*	*	*	*	*	*	*	*	*	*	*	*	*	*	*	*	*
*	*tremolo	*	*	*	*	*	*	*	*	*	*	*	*	*	*	*	*	*	*
!	!	!	!LO:DY:rj:t=pp.	!LO:TX:a:t=(Lo spettro rimantiere immobile):color=red	!	!	!	!	!	!	!	!	!	!	!	!	!	!	!
2B-/]	32DD\LLL 32D\	(<4f/ 4a-X/	pp	2.B-\_>	.	.	.	2.r	.	.	.	2.r	.	.	.	2.r	.	.	.
.	32DD\ 32D\	.	.	.	.	.	.	.	.	.	.	.	.	.	.	.	.	.	.
.	32DD\ 32D\	.	.	.	.	.	.	.	.	.	.	.	.	.	.	.	.	.	.
.	32DD\ 32D\	.	.	.	.	.	.	.	.	.	.	.	.	.	.	.	.	.	.
.	32DD\ 32D\	.	.	.	.	.	.	.	.	.	.	.	.	.	.	.	.	.	.
.	32DD\ 32D\	.	.	.	.	.	.	.	.	.	.	.	.	.	.	.	.	.	.
.	32DD\ 32D\	.	.	.	.	.	.	.	.	.	.	.	.	.	.	.	.	.	.
.	32DD\JJJ 32D\	.	.	.	.	.	.	.	.	.	.	.	.	.	.	.	.	.	.
.	32EE-X\LLL 32E-X\	4e-X/ 4g	.	.	.	.	.	.	.	.	.	.	.	.	.	.	.	.	.
.	32EE-\ 32E-\	.	.	.	.	.	.	.	.	.	.	.	.	.	.	.	.	.	.
.	32EE-\ 32E-\	.	.	.	.	.	.	.	.	.	.	.	.	.	.	.	.	.	.
.	32EE-\ 32E-\	.	.	.	.	.	.	.	.	.	.	.	.	.	.	.	.	.	.
.	32EE-\ 32E-\	.	.	.	.	.	.	.	.	.	.	.	.	.	.	.	.	.	.
.	32EE-\ 32E-\	.	.	.	.	.	.	.	.	.	.	.	.	.	.	.	.	.	.
.	32EE-\ 32E-\	.	.	.	.	.	.	.	.	.	.	.	.	.	.	.	.	.	.
.	32EE-\JJJ 32E-\	.	.	.	.	.	.	.	.	.	.	.	.	.	.	.	.	.	.
4ryy	32DD-X\LLL 32D-X\	4F</ 4B-</ 4f/)	.	.	.	.	.	.	.	.	.	.	.	.	.	.	.	.	.
.	32DD-\ 32D-\	.	.	.	.	.	.	.	.	.	.	.	.	.	.	.	.	.	.
.	32DD-\ 32D-\	.	.	.	.	.	.	.	.	.	.	.	.	.	.	.	.	.	.
.	32DD-\ 32D-\	.	.	.	.	.	.	.	.	.	.	.	.	.	.	.	.	.	.
.	32DD-\ 32D-\	.	.	.	.	.	.	.	.	.	.	.	.	.	.	.	.	.	.
.	32DD-\ 32D-\	.	.	.	.	.	.	.	.	.	.	.	.	.	.	.	.	.	.
.	32DD-\ 32D-\	.	.	.	.	.	.	.	.	.	.	.	.	.	.	.	.	.	.
.	32DD-\JJJ 32D-\	.	.	.	.	.	.	.	.	.	.	.	.	.	.	.	.	.	.
*v	*v	*	*	*	*	*	*	*	*	*	*	*	*	*	*	*	*	*	*
=8	=8	=8	=8	=8	=8	=8	=8	=8	=8	=8	=8	=8	=8	=8	=8	=8	=8	=8
*2\right	*	*	*	*	*	*	*	*	*	*	*	*	*	*	*	*	*	*
!	!	!	!LO:TX:b:t=(&colon;Widmo stoi&colon;):rj	!	!	!	!	!	!	!	!	!	!	!	!	!	!	!
2CC;>\ 2GG\ 2C\	2c;>/ 2e/	.	4B-\]	.	.	.	2.r;>	.	.	.	2.r;>	.	.	.	2.r;>	.	.	.
.	.	.	4r	.	.	.	.	.	.	.	.	.	.	.	.	.	.	.
4r	4r	.	4r;>	.	.	.	.	.	.	.	.	.	.	.	.	.	.	.
=9	=9	=9	=9	=9	=9	=9	=9	=9	=9	=9	=9	=9	=9	=9	=9	=9	=9	=9
!LO:TX:b:i:t=V&colon;S&colon;	!	!	!	!	!	!	!	!	!	!	!	!	!	!	!	!	!	!
2.r;	2.r;>	.	2.r;>	.	.	.	2.r;>	.	.	.	2.r;>	.	.	.	2.r;>	.	.	.
!!LO:PB:g=original
=10	=10	=10	=10	=10	=10	=10	=10	=10	=10	=10	=10	=10	=10	=10	=10	=10	=10	=10
!	!	!	!	!	!	!	!	!	!	!	!	!	!	!	!LO:TX:a:t=ralentando.:note=podkreślone na czarno i niebiesko	!	!	!
!LO:TX:b:B:i:t=ralentando.:note=podkreślone na niebiesko	!	!LO:DY:B:rj:t=più f.	!	!	!	!LO:DY:a:B:t=più f.	!LO:TX:t=P:problem=w transkrypcji klucz bez przenośnika oktawowego	!	!	!LO:DY:a:B:t=più f.	!	!	!	!LO:DY:B:a:t=più f.	!	!	!	!LO:DY:a:rj:t=più f.
4F\	4f/	f <	4F\	czy	nel	f	4F/	[czy	.	f	4f/	[czy	Nel	f	4f^</	czy	.	f
8G\L	8g/L	.	8G\	[wi-	no-	.	8G/	wi-	.	.	8g/	wi-	no-	.	8g^</	wi-	.	.
8A\	8a/	.	8A\	-dzisz	-me	.	8A/	-dzisz	.	.	8a/	-dzisz	-me	.	8a^</	-dzisz	.	.
8B-\	8b-/	.	8B-\	pań-	del	.	8B-\	pań-	.	.	8b-/	pań-	del	.	8b-^>\	pań-	.	.
8Bn\J	8bn/J	[	8Bn\	-ski]	Si-	.	8Bn\	-ski]	.	.	8bn/	-ski]	di-	.	8bn^>\	-ski	.	.
=11	=11	=11	=11	=11	=11	=11	=11	=11	=11	=11	=11	=11	=11	=11	=11	=11	=11	=11
*	*2\right	*	*	*	*	*	*2\right	*	*	*	*2\right	*	*	*	*2\right	*	*	*
!	!	!LO:DY:rj:t=fp.	!	!	!	!	!	!	!	!	!	!	!	!	!	!	!	!
2.c\	2.cc\	fp > ]]	[>2.c\	Krzyż!	-gnor!	.	[>2.c\	Krzyż!	.	.	[>2.cc\^^>	Krzyż!	-gnor!...	.	[>2.cc^^>\	Krzyż,!	.	.
=12	=12	=12	=12	=12	=12	=12	=12	=12	=12	=12	=12	=12	=12	=12	=12	=12	=12	=12
*	*^	*	*	*	*	*	*	*	*	*	*	*	*	*	*	*	*	*
!	!	!	!	!	!	!	!	!	!	!	!	!	!	!	!	!LO:TX:a:t=(&colon;Widmo stoi&colon;)	!	!	!
!	!	!	!	!	!	!	!	!	!	!	!	!	!	!	!	!LO:TX:a:t=(Lo spettro simantione immobile):color=red	!	!	!
(>32EE\LLL 32C\ 32E\	4c/ 4g 4cc	4ryy	.	2.c\_>	.	.	.	2.c\_>	.	.	.	2.cc\_>	.	.	.	2.cc\_>	.	.	.
32EE\ 32C\ 32E\	.	.	.	.	.	.	.	.	.	.	.	.	.	.	.	.	.	.	.
32EE\ 32C\ 32E\	.	.	.	.	.	.	.	.	.	.	.	.	.	.	.	.	.	.	.
32EE\ 32C\ 32E\	.	.	.	.	.	.	.	.	.	.	.	.	.	.	.	.	.	.	.
32EE\ 32C\ 32E\	.	.	.	.	.	.	.	.	.	.	.	.	.	.	.	.	.	.	.
32EE\ 32C\ 32E\	.	.	.	.	.	.	.	.	.	.	.	.	.	.	.	.	.	.	.
32EE\ 32C\ 32E\	.	.	.	.	.	.	.	.	.	.	.	.	.	.	.	.	.	.	.
32EE\JJJ 32C\ 32E\	.	.	.	.	.	.	.	.	.	.	.	.	.	.	.	.	.	.	.
32FF\LLL 32C\ 32F\	8cc'>/L	8c\L 8a\	.	.	.	.	.	.	.	.	.	.	.	.	.	.	.	.	.
32FF\ 32C\ 32F\	.	.	.	.	.	.	.	.	.	.	.	.	.	.	.	.	.	.	.
32FF\ 32C\ 32F\	.	.	.	.	.	.	.	.	.	.	.	.	.	.	.	.	.	.	.
32FF\ 32C\ 32F\	.	.	.	.	.	.	.	.	.	.	.	.	.	.	.	.	.	.	.
32FF\ 32C\ 32F\	8cc'>/	8c\	.	.	.	.	.	.	.	.	.	.	.	.	.	.	.	.	.
32FF\ 32C\ 32F\	.	.	.	.	.	.	.	.	.	.	.	.	.	.	.	.	.	.	.
32FF\ 32C\ 32F\	.	.	.	.	.	.	.	.	.	.	.	.	.	.	.	.	.	.	.
32FF\JJJ 32C 32F\	.	.	.	.	.	.	.	.	.	.	.	.	.	.	.	.	.	.	.
32EE-X\LLL 32E-X\	8cc'>/	8c\ 8g\	.	.	.	.	.	.	.	.	.	.	.	.	.	.	.	.	.
32EE-\ 32E-\	.	.	.	.	.	.	.	.	.	.	.	.	.	.	.	.	.	.	.
32EE-\ 32E-\	.	.	.	.	.	.	.	.	.	.	.	.	.	.	.	.	.	.	.
32EE-\ 32E-\	.	.	.	.	.	.	.	.	.	.	.	.	.	.	.	.	.	.	.
32EE-\ 32E-\	8cc'>/J	8c\J	.	.	.	.	.	.	.	.	.	.	.	.	.	.	.	.	.
32EE-\ 32E-\	.	.	.	.	.	.	.	.	.	.	.	.	.	.	.	.	.	.	.
32EE-\ 32E-\	.	.	.	.	.	.	.	.	.	.	.	.	.	.	.	.	.	.	.
32EE-\JJJ 32E-\	.	.	.	.	.	.	.	.	.	.	.	.	.	.	.	.	.	.	.
*Xtremolo	*	*	*	*	*	*	*	*	*	*	*	*	*	*	*	*	*	*	*
*	*v	*v	*	*	*	*	*	*	*	*	*	*	*	*	*	*	*	*	*
=13	=13	=13	=13	=13	=13	=13	=13	=13	=13	=13	=13	=13	=13	=13	=13	=13	=13	=13
2DD;>\) 2AA\ 2D\	2d;>/ 2f#X/ 2dd/	.	4c\]	.	.	.	4c\]	.	.	.	4cc\]	.	.	.	4cc\]	.	.	.
.	.	.	4r;>	.	.	.	4r;>	.	.	.	4r;>	.	.	.	4r;>	.	.	.
4r	4r	.	4r	.	.	.	4r	.	.	.	4r	.	.	.	4r	.	.	.
==14	==14	==14	==14	==14	==14	==14	==14	==14	==14	==14	==14	==14	==14	==14	==14	==14	==14	==14
!!!OMD: allegro.
*k[f#c#]	*k[f#c#]	*	*k[f#c#]	*	*	*	*k[f#c#]	*	*	*	*k[f#c#]	*	*	*	*k[f#c#]	*	*	*
*M4/4	*M4/4	*	*M4/4	*	*	*	*M4/4	*	*	*	*M4/4	*	*	*	*M4/4	*	*	*
*met(c)	*met(c)	*	*met(c)	*	*	*	*met(c)	*	*	*	*met(c)	*	*	*	*met(c)	*	*	*
*tremolo	*	*	*	*	*	*	*	*	*	*	*	*	*	*	*	*	*	*
!	!LO:TX:a:B:t=allegro.	!LO:DY:rj:t=pp.	!	!	!	!	!	!	!	!	!	!	!	!	!	!	!	!
16FFF#/LL	(>2F#/	pp	1r	.	.	.	1r	.	.	.	1r	.	.	.	1r	.	.	.
16FF#/	.	.	.	.	.	.	.	.	.	.	.	.	.	.	.	.	.	.
16FFF#/	.	.	.	.	.	.	.	.	.	.	.	.	.	.	.	.	.	.
16FF#/	.	.	.	.	.	.	.	.	.	.	.	.	.	.	.	.	.	.
16FFF#/	.	.	.	.	.	.	.	.	.	.	.	.	.	.	.	.	.	.
16FF#/	.	.	.	.	.	.	.	.	.	.	.	.	.	.	.	.	.	.
16FFF#/	.	.	.	.	.	.	.	.	.	.	.	.	.	.	.	.	.	.
16FF#/JJ	.	.	.	.	.	.	.	.	.	.	.	.	.	.	.	.	.	.
*Xtremolo	*	*	*	*	*	*	*	*	*	*	*	*	*	*	*	*	*	*
16GGG/LL	4.G/	.	.	.	.	.	.	.	.	.	.	.	.	.	.	.	.	.
16GG/	.	.	.	.	.	.	.	.	.	.	.	.	.	.	.	.	.	.
16GGG/	.	.	.	.	.	.	.	.	.	.	.	.	.	.	.	.	.	.
16GG/JJ	.	.	.	.	.	.	.	.	.	.	.	.	.	.	.	.	.	.
16GGG/LL	.	.	.	.	.	.	.	.	.	.	.	.	.	.	.	.	.	.
16GG/	.	.	.	.	.	.	.	.	.	.	.	.	.	.	.	.	.	.
16GGG#X/	8G#X/	.	.	.	.	.	.	.	.	.	.	.	.	.	.	.	.	.
16GG#X/JJ	.	.	.	.	.	.	.	.	.	.	.	.	.	.	.	.	.	.
!!LO:LB:g=original
=15	=15	=15	=15	=15	=15	=15	=15	=15	=15	=15	=15	=15	=15	=15	=15	=15	=15	=15
!	!LO:TX:a:t=agitato.	!	!	!	!	!	!	!	!	!	!	!	!	!	!	!	!	!
16AAA/LL	4.A/	.	1r	.	.	.	1r	.	.	.	1r	.	.	.	1r	.	.	.
16AA/	.	.	.	.	.	.	.	.	.	.	.	.	.	.	.	.	.	.
16AAA/	.	.	.	.	.	.	.	.	.	.	.	.	.	.	.	.	.	.
16AA/JJ	.	.	.	.	.	.	.	.	.	.	.	.	.	.	.	.	.	.
16AAA/LL	.	.	.	.	.	.	.	.	.	.	.	.	.	.	.	.	.	.
16AA/	.	.	.	.	.	.	.	.	.	.	.	.	.	.	.	.	.	.
16AAA#X/	[<8A#X/	.	.	.	.	.	.	.	.	.	.	.	.	.	.	.	.	.
16AA#X/JJ	.	.	.	.	.	.	.	.	.	.	.	.	.	.	.	.	.	.
8BBB/L 8BB	16A#/KL]	.	.	.	.	.	.	.	.	.	.	.	.	.	.	.	.	.
.	8B/	.	.	.	.	.	.	.	.	.	.	.	.	.	.	.	.	.
8AA#X/	.	.	.	.	.	.	.	.	.	.	.	.	.	.	.	.	.	.
.	8A#/	.	.	.	.	.	.	.	.	.	.	.	.	.	.	.	.	.
8BB/	.	.	.	.	.	.	.	.	.	.	.	.	.	.	.	.	.	.
.	8B/	.	.	.	.	.	.	.	.	.	.	.	.	.	.	.	.	.
8C#/J	.	.	.	.	.	.	.	.	.	.	.	.	.	.	.	.	.	.
.	[<16c#/Jk	.	.	.	.	.	.	.	.	.	.	.	.	.	.	.	.	.
=16	=16	=16	=16	=16	=16	=16	=16	=16	=16	=16	=16	=16	=16	=16	=16	=16	=16	=16
8D\L	16c#/KL]	.	1r	.	.	.	1r	.	.	.	1r	.	.	.	1r	.	.	.
!	!LO:TX:b:t=molto cres_cen_do:problem=dynamics with extention lines	!LO:HP:t=molto cres-cen-do:ext=ud	!	!	!	!	!	!	!	!	!	!	!	!	!	!	!	!
.	8d/	<	.	.	.	.	.	.	.	.	.	.	.	.	.	.	.	.
8C#\	.	.	.	.	.	.	.	.	.	.	.	.	.	.	.	.	.	.
.	8c#/	.	.	.	.	.	.	.	.	.	.	.	.	.	.	.	.	.
8D\	.	.	.	.	.	.	.	.	.	.	.	.	.	.	.	.	.	.
.	8d/	.	.	.	.	.	.	.	.	.	.	.	.	.	.	.	.	.
8F#\J	.	.	.	.	.	.	.	.	.	.	.	.	.	.	.	.	.	.
.	8f#/	.	.	.	.	.	.	.	.	.	.	.	.	.	.	.	.	.
8B\L	.	.	.	.	.	.	.	.	.	.	.	.	.	.	.	.	.	.
.	8b/	.	.	.	.	.	.	.	.	.	.	.	.	.	.	.	.	.
8F#\	.	.	.	.	.	.	.	.	.	.	.	.	.	.	.	.	.	.
.	8f#/	.	.	.	.	.	.	.	.	.	.	.	.	.	.	.	.	.
8B\	.	.	.	.	.	.	.	.	.	.	.	.	.	.	.	.	.	.
.	8b/)	.	.	.	.	.	.	.	.	.	.	.	.	.	.	.	.	.
8c#\J	.	.	.	.	.	.	.	.	.	.	.	.	.	.	.	.	.	.
.	[<16cc#/Jk	.	.	.	.	.	.	.	.	.	.	.	.	.	.	.	.	.
=17	=17	=17	=17	=17	=17	=17	=17	=17	=17	=17	=17	=17	=17	=17	=17	=17	=17	=17
8d\L	16cc#/KL]	.	1r	.	.	.	1r	.	.	.	1r	.	.	.	1r	.	.	.
.	8dd/	.	.	.	.	.	.	.	.	.	.	.	.	.	.	.	.	.
8B\	.	.	.	.	.	.	.	.	.	.	.	.	.	.	.	.	.	.
.	8b/	.	.	.	.	.	.	.	.	.	.	.	.	.	.	.	.	.
8d\	.	.	.	.	.	.	.	.	.	.	.	.	.	.	.	.	.	.
.	8dd/	.	.	.	.	.	.	.	.	.	.	.	.	.	.	.	.	.
8f#\J	.	.	.	.	.	.	.	.	.	.	.	.	.	.	.	.	.	.
.	8ff#/	.	.	.	.	.	.	.	.	.	.	.	.	.	.	.	.	.
8d\L	.	.	.	.	.	.	.	.	.	.	.	.	.	.	.	.	.	.
.	8bb/	.	.	.	.	.	.	.	.	.	.	.	.	.	.	.	.	.
16B\L	.	.	.	.	.	.	.	.	.	.	.	.	.	.	.	.	.	.
16F#\JJ	8ff#/	.	.	.	.	.	.	.	.	.	.	.	.	.	.	.	.	.
8D\L	.	[[	.	.	.	.	.	.	.	.	.	.	.	.	.	.	.	.
.	8b/ 8bb	<	.	.	.	.	.	.	.	.	.	.	.	.	.	.	.	.
8C#\J	.	.	.	.	.	.	.	.	.	.	.	.	.	.	.	.	.	.
.	16cc#/Jk 16ccc#	.	.	.	.	.	.	.	.	.	.	.	.	.	.	.	.	.
=18	=18	=18	=18	=18	=18	=18	=18	=18	=18	=18	=18	=18	=18	=18	=18	=18	=18	=18
!	!	!LO:DY:B:t=sff.	!	!	!	!LO:DY:a:rj:t=ff.	!	!	!	!LO:DY:a:rj:t=ff.	!	!	!	!LO:DY:a:rj:t=ff.	!	!	!	!LO:DY:a:rj:t=ff.
8BB/	8dd\ 8ff# 8ddd	[ sff.	4B\	Du-	.	ff	4d\	Du-	Al-	ff	4f#/	Du-	.	ff	4dd\	Du-	Al-	ff
8r	8r	.	.	.	.	.	.	.	.	.	.	.	.	.	.	.	.	.
4r	4r	.	8B\	-szo	.	.	8d\	-szo	-ma	.	8f#/	-szo	.	.	8dd\	-szo	-ma	.
.	.	.	8B\	[prze-	.	.	8d\	[prze-	re-	.	8f#/	[prze-	.	.	8dd\	prze-	re-	.
2r	2r	.	4B\	-klę-	.	.	4d\	-klę-	-den-	.	4f#/	-klę-	.	.	4dd\	-klę-	-den-	.
.	.	.	8B\	-ta o	.	.	8d\	-ta o	-ta	.	8f#/	-ta	.	.	8dd\	-ta	-ta o	.
.	.	.	8B\	czy]	.	.	8d\	czy]	dan-	.	8f#/	czy]	.	.	8dd\	czy	dan-	.
!!LO:PB:g=original
=19	=19	=19	=19	=19	=19	=19	=19	=19	=19	=19	=19	=19	=19	=19	=19	=19	=19	=19
!	!	!LO:DY:rj:t=ff.	!	!	!	!	!	!	!	!	!	!	!	!	!	!	!	!
8r	8r	ff	2B\	bło-	.	.	2d\	bło-	-na-	.	2f#/	bło-	.	.	2dd\	bło-	-na-	.
8f#>\L	8ff#/L	.	.	.	.	.	.	.	.	.	.	.	.	.	.	.	.	.
8d>\	8dd/	.	.	.	.	.	.	.	.	.	.	.	.	.	.	.	.	.
8c#>\J	8cc#/J	.	.	.	.	.	.	.	.	.	.	.	.	.	.	.	.	.
8B>\L	8b/L	.	8B\	-[ga,	.	.	8d\	-[ga,	-ta,	.	8f#/	-[ga,	.	.	8b\	-ga,	-ta,	.
8F#\	8f#/	.	8r	.	.	.	8r	.	.	.	8r	.	.	.	8r	.	.	.
8D\	8d/	.	8d\L	o-	.	.	8f#\L	o-	di-	.	4f#/	o-	.	.	8b\L	o-	di-	.
8C#\J	8c#/J	.	8c#\J	.	.	.	8e\J	.	.	.	.	.	.	.	8cc#\J	.	.	.
=20	=20	=20	=20	=20	=20	=20	=20	=20	=20	=20	=20	=20	=20	=20	=20	=20	=20	=20
4BBB^>/ 4BB	4BT>/	.	4B\	-pusz-	.	.	4d\	-pusz-	-sgom-	.	4f#/	-pusz-	.	.	4dd\	-pusz-	-sgom-	.
4AAA^>/ 4AA	4AT>/	.	4A\	-czaj	.	.	4c#\	-czaj	-bra-	.	4f#/	-czaj	.	.	4dd\	-czaj	-bra-	.
4GGG^>/ 4GG	4GT>/	.	4G\	świę-	.	.	4B\	świę-	-da	.	4g/	świę-	.	.	4dd\	świę-	-da	.
4FFF#^>/ 4FF#	4F#t>/	.	8F#\	-te	.	.	8A\	-te	que-	.	8a/	-te	.	.	8dd\	-te	que-	.
.	.	.	8F#\	ob-	.	.	8A\	ob-	-ste	.	8a/	ob-	.	.	8dd\	ob-	-ste	.
=21	=21	=21	=21	=21	=21	=21	=21	=21	=21	=21	=21	=21	=21	=21	=21	=21	=21	=21
!!mixed beam:problem
!	!LO:TX:t=P:mixedbeam:problem	!	!	!	!	!	!	!	!	!	!	!	!	!	!	!	!	!
8EEE/ 8EE	(>16E</LL	.	2E\	-rzę-	.	.	2B\	-rzę-	mu-	.	2g/	-rzę-	.	.	2dd\	-rzę-	mu-	.
.	16G</	.	.	.	.	.	.	.	.	.	.	.	.	.	.	.	.	.
8E\L	16B</	.	.	.	.	.	.	.	.	.	.	.	.	.	.	.	.	.
.	16e\JJ	.	.	.	.	.	.	.	.	.	.	.	.	.	.	.	.	.
8E\ 8G\ 8B\	16g\LL	.	.	.	.	.	.	.	.	.	.	.	.	.	.	.	.	.
.	16b\	.	.	.	.	.	.	.	.	.	.	.	.	.	.	.	.	.
8G\J 8B\ 8e\	16ee\	.	.	.	.	.	.	.	.	.	.	.	.	.	.	.	.	.
.	16ff#\JJ	.	.	.	.	.	.	.	.	.	.	.	.	.	.	.	.	.
8B\ 8e\ 8g\	8gg\)	.	8E\	-dy,	.	.	8B\	-dy,	-ra!	.	8g/	-dy,	.	.	8cc#\	-dy,	-ra!	.
8r	8r	.	8r	.	.	.	8r	.	.	.	8r	.	.	.	8r	.	.	.
8EE/L 8E/	8e/L	.	8e\	o-	.	.	8e\	o-	Va,	.	8g/	o-	.	.	8cc#\	o-	va	.
8DD/J 8D/	8d/J	.	8d\	-to	.	.	8e/	-to	ri-	.	8g/	-to	.	.	8cc#\	-to	ri-	.
=22	=22	=22	=22	=22	=22	=22	=22	=22	=22	=22	=22	=22	=22	=22	=22	=22	=22	=22
4CC#^>/ 4C#	4c#t>/	.	4c#\	roz-	.	.	4e\	roz-	-tor-	.	4g/	roz-	.	.	4ee\	roz-	-tor-	.
4BBB^>/ 4BB	4BT>/	.	4B\	-twar-	.	.	4d\	-twar-	-na in	.	4g/	-twar-	.	.	4ee\	-twar-	-na in	.
4AAA^>/ 4AA	4AT>/	.	4A\	-ta	.	.	4c#\	-ta	se-	.	4a/	-ta	.	.	4ee\	-ta	se-	.
4GGG^>/ 4GG	4GT>/	.	4G\	po-	.	.	4c#\	po-	-pol-	.	4a/	po-	.	.	4ee\	po-	-pol-	.
=23	=23	=23	=23	=23	=23	=23	=23	=23	=23	=23	=23	=23	=23	=23	=23	=23	=23	=23
!!mixed beam:problem
!	!LO:TX:t=P:problem=mixedbeam	!	!	!	!	!	!	!	!	!	!	!	!	!	!	!	!	!
8FFF#/ 8FF#	(>16F#</LL	.	2F#\	-dło-	.	.	2c#\	-dło-	-tu-	.	2a#X/	-dło-	.	.	2ee\	-dło-	-tu-	.
.	16A#X</	.	.	.	.	.	.	.	.	.	.	.	.	.	.	.	.	.
8F#\L	16c#\	.	.	.	.	.	.	.	.	.	.	.	.	.	.	.	.	.
.	16e\JJ	.	.	.	.	.	.	.	.	.	.	.	.	.	.	.	.	.
8A#y\ 8c#	16f#\LL	.	.	.	.	.	.	.	.	.	.	.	.	.	.	.	.	.
.	16a#X\	.	.	.	.	.	.	.	.	.	.	.	.	.	.	.	.	.
8A#\J 8c# 8f#	16cc#\	.	.	.	.	.	.	.	.	.	.	.	.	.	.	.	.	.
.	16ff#\JJ)	.	.	.	.	.	.	.	.	.	.	.	.	.	.	.	.	.
!	!LO:TX:a:t=|:problem	!	!	!	!	!	!	!	!	!	!	!	!	!	!	!	!	!
8B\ 8f#	8b\ 8dd	.	8BB\ 8B	-ga,	.	.	8d\	-ga,	-ra	.	8b/	-ga,	.	.	8dd\	-ga,	-ra,	.
8r	8r	.	8r	.	.	.	8r	.	.	.	8r	.	.	.	8r	.	.	.
8.BBB/L 8.BB/	8.f#/L 8.dd/	.	8.BB/	kę-	.	.	8.d\	kę-	o	.	8.f#/	kę-	.	.	8.dd\	kę-	o	.
16BBB/Jk 16BB	16f#/Jk 16dd/	.	16BB/	-dy	.	.	16d\	-dy	l'in-	.	16f#/	-dy	.	.	16dd\	-dy	l'in-	.
!!LO:LB:g=original
=24	=24	=24	=24	=24	=24	=24	=24	=24	=24	=24	=24	=24	=24	=24	=24	=24	=24	=24
*	*^	*	*	*	*	*	*	*	*	*	*	*	*	*	*	*	*	*
!	!	!	!	!	!	!	!LO:HP:a	!	!	!	!LO:HP:a	!	!	!	!LO:HP:a	!	!	!	!LO:HP:a
!	!	!	!LO:DY:rj:t=sff.	!	!	!	!LO:DY:a:rj:t=sff.	!	!	!	!LO:DY:a:rj:t=sff.	!	!	!	!LO:DY:a:rj:t=sff.	!	!	!	!LO:DY:a:rj:t=sff.
4BB\ 4B\	(>8.e#X/L	4d\	sff	2B\	wsze-	.	sff >	2d\	wsze-	-co-	sff >	2d/	wsze-	.	sff >	2e#X/	wsze-	-co-	sff >
.	16g/Jk	.	.	.	.	.	.	.	.	.	.	.	.	.	.	.	.	.	.
8B\L 8d\	16b/LL	4ryy	.	.	.	.	.	.	.	.	.	.	.	.	.	.	.	.	.
.	16dd/	.	.	.	.	.	.	.	.	.	.	.	.	.	.	.	.	.	.
8B\J 8d\	16ee#X/	.	.	.	.	.	.	.	.	.	.	.	.	.	.	.	.	.	.
.	16gg/JJ	.	.	.	.	.	.	.	.	.	.	.	.	.	.	.	.	.	.
!	!LO:TX:a:t=|:problem	!	!	!	!	!	!	!	!	!	!	!	!	!	!	!	!	!	!
8A#X\ 8c#\	8ff#\)	2ryy	.	8A#X\	-dłeś	.	]	8c#\	-dłeś	-glie	]	8f#/	-dłeś	.	]	8f#/	-dłeś	-glie	]
8r	8r	.	.	8r	.	.	.	8r	.	.	.	8r	.	.	.	8r	.	.	.
8.AAAn/L 8.AAn/	8.e#/L 8.ccn/	.	.	8.An\	wy-	.	.	8.cn\	wy-	l'a-	.	8.e/	wy-	.	.	8.ccn\	wy-	l'a-	.
16AAA/Jk 16AA/	16e#/Jk 16cc/	.	.	16A\	-chodź	.	.	16c\	-chodź	-na-	.	16e/	-chodź	.	.	16cc\	-chodź	-na-	.
=25	=25	=25	=25	=25	=25	=25	=25	=25	=25	=25	=25	=25	=25	=25	=25	=25	=25	=25	=25
!	!	!	!LO:DY:rj:t=sf.	!	!	!	!LO:DY:a:rj	!	!	!	!LO:DY:a:t=sf.	!	!	!	!LO:DY:a:t=sf.	!	!	!	!LO:DY:a:t=sf.
4AA\ 4A\	(>8.d#X/L	4cn\	sf	2An\	tę-	.	sf	2cn\	tę-	-te-	sf	2cn/	tę-	.	sf	2d#X/	tę-	-te-	sf
.	16f#/Jk	.	.	.	.	.	.	.	.	.	.	.	.	.	.	.	.	.	.
8A\L 8cn\	16a/LL	4ryy	.	.	.	.	.	.	.	.	.	.	.	.	.	.	.	.	.
.	16ccn/	.	.	.	.	.	.	.	.	.	.	.	.	.	.	.	.	.	.
8A\J 8c\	16dd#X/	.	.	.	.	.	.	.	.	.	.	.	.	.	.	.	.	.	.
.	16ff#/JJ	.	.	.	.	.	.	.	.	.	.	.	.	.	.	.	.	.	.
!LO:ACC:color=blue	!	!	!	!	!	!	!	!	!	!	!	!	!	!	!	!	!	!	!
8G#X\ 8B\	8ee/)	2ryy	.	8G#X\	-dy,	.	.	8B\	-dy,	-ma,	.	8e/	-dy,	.	.	8e/	-dy,	-ma,	.
8r	8r	.	.	8r	.	.	.	8r	.	.	.	8r	.	.	.	8r	.	.	.
!LO:ACC:color=gray	!	!	!	!	!	!	!	!	!	!	!	!	!	!	!	!	!	!	!
8GGn\L 8Gn\	8b\L 8bb\	.	.	8Gn\	bo	.	.	8B\	bo	a	.	8e/	bo	.	.	8e/	bo	a	.
8FF#\J 8F#\	8a\J 8aa\	.	.	8F#\	cię	.	.	8B\	cię	t'in-	.	8e/	cię	.	.	8f#/	cię	t'in-	.
=26	=26	=26	=26	=26	=26	=26	=26	=26	=26	=26	=26	=26	=26	=26	=26	=26	=26	=26	=26
4EE/ 4E	4g\ 4b\ 4gg\	2.ryy	.	4E\	prze-	.	.	4B\	prze-	-co-	.	4e/	prze-	.	.	4g/	prze-	-co-	.
4DD/ 4D/	4f#\ 4b\ 4ff#\	.	.	4D\	-klniem	.	.	4B\	-klniem	-glie	.	4f#/	-klniem	.	.	4b/	-klniem	-glie	.
4CC#/ 4C#/	4f#\ 4a#X\ 4ee\	.	.	4C#\	w I-	.	.	4e\	w I-	l'a-	.	4f#/	w I-	.	.	4a#X/	w I-	l'a-	.
4BBB/ 4BB/	8dd/L	4f#\ 4b\	.	4BB\	-mię]	.	.	8d\L	-mię]	-na-	.	4f#/	-mię]	.	.	4b/	-mię	-na-	.
.	8cc#/J	.	.	.	.	.	.	8c#\J	.	.	.	.	.	.	.	.	.	.	.
*	*v	*v	*	*	*	*	*	*	*	*	*	*	*	*	*	*	*	*	*
=27	=27	=27	=27	=27	=27	=27	=27	=27	=27	=27	=27	=27	=27	=27	=27	=27	=27	=27
!	!LO:TX:b:t=|:problem	!	!	!	!	!	!	!	!	!	!	!	!	!	!LO:S:color=gray	!	!	!
!LO:TX:a:t=|:problem	!LO:TX:a:B:t=Piu mosso.:note=podkreślone na niebiesko	!	!	!	!	!	!LO:S:color=gray	!	!	!	!	!	!	!	!LO:TX:a:B:t=Piu mosso.:podkreślone na niebiesko	!	!	!
4FF#\ 4F#\	4d/ 4b/	.	4F#\	Bo-	.	.	(>4B\	Bo-	-te-	.	4f#/	Bo-	.	.	(>4dd\	Bo-	-te-	.
!LO:TX:a:t=|:problem	!LO:TX:b:t=|:problem	!	!	!	!	!	!	!	!	!	!	!	!	!	!	!	!	!
4FF#\ 4F#\	4c#/ 4a#X/	.	4F#\	-ga.	.	.	4A#X\)	-ga.	-ma!	.	4f#/	-ga.	.	.	4cc#\)	-ga.	-ma!	.
2r	2r	.	2r	.	.	.	2r	.	.	.	2r	.	.	.	2r	.	.	.
=28	=28	=28	=28	=28	=28	=28	=28	=28	=28	=28	=28	=28	=28	=28	=28	=28	=28	=28
1r	1r	.	1r	.	.	.	1r	.	.	.	1r	.	.	.	1r	.	.	.
!!LO:PB:g=original
=29	=29	=29	=29	=29	=29	=29	=29	=29	=29	=29	=29	=29	=29	=29	=29	=29	=29	=29
*^	*^	*	*	*	*	*	*	*	*	*	*	*	*	*	*	*	*	*
!	!	!	!	!LO:DY:rj:t=ff.	!	!	!	!	!	!	!	!	!	!	!	!	!	!	!	!
2.DD/ 2.AA/ 2.D/	2.ryy	2.dd/ 2.ff#/	2.f#\	ff	2d\	precz!	va!	.	2.d^>\	precz	via	.	[<1a^>	precz	via	.	2.ff#\^>	precz	via	.
.	.	.	.	.	2r	.	.	.	.	.	.	.	.	.	.	.	.	.	.	.
8A/L	8D\L	8cc#/L 8ee/	4f#\	.	.	.	.	.	8c#\L	stąd,	di	.	.	.	.	.	8ee\L	stąd,	di	.
8A/J	8D\J	8dd/J 8ff#/	.	.	.	.	.	.	8d\J	.	.	.	.	.	.	.	8ff#\J	.	.	.
=30	=30	=30	=30	=30	=30	=30	=30	=30	=30	=30	=30	=30	=30	=30	=30	=30	=30	=30	=30	=30
4A/	2D\	4cc#/ 4ee/	4f#\	.	1r	.	.	.	4c#\	precz	qua	.	4a/]	.	.	.	4ee\	precz	qua	.
8A/L	.	8b/L 8dd	4f#\	.	.	.	.	.	8B\L	na	t'in-	.	4a/	na	t'in-	.	8dd\L	na	t'in-	.
8A/J	.	8cc#/J 8ee/	.	.	.	.	.	.	8c#\J	.	.	.	.	.	.	.	8ee\J	.	.	.
4A/	4F#\	4b/ 4dd/	4f#\	.	.	.	.	.	4B\	la-	-vo-	.	4a/	la-	-vo-	.	4dd\	la-	-vo-	.
4A/	4D\	8a/L 8cc#/	4f#\	.	.	.	.	.	8A\L	-sy,	-la	.	4a/	-sy,	-la	.	8cc#\L	-sy,	-la	.
.	.	8b/J 8dd/	.	.	.	.	.	.	8B\J	.	.	.	.	.	.	.	8dd\J	.	.	.
*	*	*v	*v	*	*	*	*	*	*	*	*	*	*	*	*	*	*	*	*	*
=31	=31	=31	=31	=31	=31	=31	=31	=31	=31	=31	=31	=31	=31	=31	=31	=31	=31	=31	=31
.	.	8qb/ 8qdd/	>	.	.	.	.	.	.	.	.	.	.	.	.	.	.	.	.
4A/	4D\	(<4a/ 4cc#/	.	2r	.	.	.	4A'</	precz	via	.	4e'</	precz	via	.	4cc#'>\	precz	via	.
4AAA'</ 4AA/	4ryy	8g/) 8b/	]	.	.	.	.	4G'</	stąd,	di	.	4e'</	stąd,	di	.	4b'>\	stąd,	di	.
.	.	8r	.	.	.	.	.	.	.	.	.	.	.	.	.	.	.	.	.
.	.	8qa/ 8qcc#/	>	.	.	.	.	.	.	.	.	.	.	.	.	.	.	.	.
4DD'</ 4D/	2ryy	(<4e/ 4g/ 4b/	.	4d\	precz	via	.	4.E^</	precz,	qua,	.	4.g^</	precz,	qua!	.	4.ee^>\	precz,	qua!	.
4AAA'</ 4AA/	.	8c#/) 8g/ 8a/	]	4A\	stąd,	di	.	.	.	.	.	.	.	.	.	.	.	.	.
.	.	8r	.	.	.	.	.	8r	.	.	.	8r	.	.	.	8r	.	.	.
*v	*v	*	*	*	*	*	*	*	*	*	*	*	*	*	*	*	*	*	*
=32	=32	=32	=32	=32	=32	=32	=32	=32	=32	=32	=32	=32	=32	=32	=32	=32	=32	=32
.	8qa/ 8qcc#/	>	.	.	.	.	.	.	.	.	.	.	.	.	.	.	.	.
4DD'</ 4D/	(<4e/ 4g/ 4b/	.	4.d^<\	precz!	qua!	.	4e\	precz	via	.	4g'</	precz	via	.	4b\	precz	via	.
4AAA'</ 4AA/	8c#/) 8g/ 8a/	]	.	.	.	.	4e\	stąd	di	.	4g'</	stąd,	di	.	4a\	stąd	di	.
.	8r	.	8r	.	.	.	.	.	.	.	.	.	.	.	.	.	.	.
.	8qa/ 8qcc#/	>	.	.	.	.	.	.	.	.	.	.	.	.	.	.	.	.
4DD'</ 4D/	(<4e/ 4g/ 4b/	.	4d\	precz	via	.	4.e\	precz!	qua	.	4.e^</	precz!	qua!	.	4.ee^>\	precz!	qua!	.
4AAA'</ 4AA/	8c#/) 8g/ 8a/	]	4A\	stąd	di	.	.	.	.	.	.	.	.	.	.	.	.	.
.	8r	.	.	.	.	.	8r	.	.	.	8r	.	.	.	8r	.	.	.
=33	=33	=33	=33	=33	=33	=33	=33	=33	=33	=33	=33	=33	=33	=33	=33	=33	=33	=33
*coll8ba	*	*	*	*	*	*	*	*	*	*	*	*	*	*	*	*	*	*
!LO:TX:t=P:problem=ottava mark	!	!	!	!	!	!	!	!	!	!	!	!	!	!	!	!	!	!
8DDD/ 8DD/	(>8f#\L 8a\	.	2.d\	precz!	qua!	.	4r	.	.	.	4r	.	.	.	4r	.	.	.
*Xcoll8ba	*	*	*	*	*	*	*	*	*	*	*	*	*	*	*	*	*	*
8r	8dd\J) 8ff#\	.	.	.	.	.	.	.	.	.	.	.	.	.	.	.	.	.
2D\ 2A\ 2d\	2f#^>\ 2dd\ 2ff#\	.	.	.	.	.	2d\	precz	fra	.	2a^</	precz	.	.	2ff#^>\	precz	fra	.
8D'>\L 8A\	8f#\L 8cc#\ 8ee\	.	4r	.	.	.	8c#\L	na	le	.	4a/	na	.	.	8ee\L	stąd	le	.
8D'>\J 8A\	8f#\J 8dd\ 8ff#\	.	.	.	.	.	8d\J	.	.	.	.	.	.	.	8ff#\J	.	.	.
!!LO:LB:g=original
=34	=34	=34	=34	=34	=34	=34	=34	=34	=34	=34	=34	=34	=34	=34	=34	=34	=34	=34
4D'>\ 4A\	4f#\ 4cc#\ 4ee\	.	1r	.	.	.	4c#\	[precz	sel-	.	4a/	[precz	.	.	4ee\	precz	sel-	.
8D'>\L 8A\	8f#'>\L 8b\ 8dd\	.	.	.	.	.	8B\L	na	-ve	.	4a/	na	.	.	8dd\L	na	-ve	.
8D'>\J 8A\	8f#'>\J 8cc#\ 8ee\	.	.	.	.	.	8c#\J	.	.	.	.	.	.	.	8ee\J	.	.	.
4D'>\ 4A\	4f#\ 4b\ 4dd\	.	.	.	.	.	4B\	rze-	glian-	.	4a/	rze-	.	.	4dd\	rze-	glian-	.
8D'>\L 8A\	8f#\L 8a\ 8cc#\	.	.	.	.	.	8A\L	-ki,	-tri	.	4a/	-ki,	.	.	8cc#\L	-ki,	-tri	.
8D'>\J 8A\	8f#\J 8b\ 8dd\	.	.	.	.	.	8B\J	.	a	.	.	.	.	.	8dd\J	.	a	.
=35	=35	=35	=35	=35	=35	=35	=35	=35	=35	=35	=35	=35	=35	=35	=35	=35	=35	=35
.	8qb/ 8qdd/	>	.	.	.	.	.	.	.	.	.	.	.	.	.	.	.	.
4D'>\ 4A\	(>4a\ 4cc#\	.	2r	.	.	.	4A'</	precz	ram-	.	4e'</	precz	.	.	4cc#'>\	precz	ram-	.
4AAA'</ 4AA/	8g/) 8b/	]	.	.	.	.	4G'</	stąd,	-min-	.	4e'</	stąd,	.	.	4b'>\	stąd,	-min-	.
.	8r	.	.	.	.	.	.	.	.	.	.	.	.	.	.	.	.	.
.	8qa/ 8qcc#/	>	.	.	.	.	.	.	.	.	.	.	.	.	.	.	.	.
4DD'</ 4D/	(<4e/ 4g/ 4b/	.	4d'>\	precz	via	.	4E'<^>/	precz,	-gar	.	4.g^</	precz,	.	.	4.ee^>\	precz,	-gar,	.
4AAA'</ 4AA/	8c#/) 8g/ 8a/	]	4A'>\	stąd,	di	.	4r	.	.	.	.	.	.	.	.	.	.	.
.	8r	.	.	.	.	.	.	.	.	.	8r	.	.	.	8r	.	.	.
=36	=36	=36	=36	=36	=36	=36	=36	=36	=36	=36	=36	=36	=36	=36	=36	=36	=36	=36
.	8qa/ 8qcc#/	>	.	.	.	.	.	.	.	.	.	.	.	.	.	.	.	.
4DD'</ 4D/	(<4e/ 4g/ 4b/	.	4.d^<\	precz!	qua	.	4e'>\	precz	via	.	4g'</	precz	.	.	4b'>\	precz	via	.
8AAA/L 8AA/	8c#/) 8g/ 8a/	]	.	.	.	.	4e'>\	stąd,]	di	.	4g'</	stąd,]	.	.	4a'>\	stąd,	di	.
8AAA/J 8AA/	8r	.	8r	.	.	.	.	.	.	.	.	.	.	.	.	.	.	.
.	8qa/ 8qcc#/	>	.	.	.	.	.	.	.	.	.	.	.	.	.	.	.	.
4DD/ 4D/	(<4e/ 4g/ 4b/	.	4d'>\	precz	via	.	4e^>\	precz!	qua	.	4e^</	precz!	.	.	4a^>\	precz!	qua!	.
4AAA/ 4AA/	8c#/L 8a/	]	4A'>\	stąd	di	.	4r	.	.	.	4r	.	.	.	4r	.	.	.
.	8g/J)	.	.	.	.	.	.	.	.	.	.	.	.	.	.	.	.	.
=37	=37	=37	=37	=37	=37	=37	=37	=37	=37	=37	=37	=37	=37	=37	=37	=37	=37	=37
*coll8ba	*	*	*	*	*	*	*	*	*	*	*	*	*	*	*	*	*	*
*	*^	*	*	*	*	*	*	*	*	*	*	*	*	*	*	*	*	*
!LO:TX:t=P:problem=ottava mark	!	!	!	!	!	!	!	!	!	!	!	!	!	!	!	!	!	!	!
8DDD/ 8DD	8d/ 8f#/	4ryy	.	4D\'>	precz!	qua!	.	4r	.	.	.	1r	.	.	.	1r	.	.	.
!	!	!	!	!	!	!	!	!LO:CL:ed	!	!	!	!	!	!	!	!	!	!	!
*Xcoll8ba	*	*	*	*	*	*	*	*clefG2	*	*	*	*	*	*	*	*	*	*	*
8r	8r	.	.	.	.	.	.	.	.	.	.	.	.	.	.	.	.	.	.
!	!	!	!LO:DY:rj:t=pp.	!	!	!	!	!	!	!	!LO:DY:a:rj:t=p.	!	!	!	!	!	!	!	!
(>8D\L	(>8f#/L	2d\	pp	4r	.	.	.	8f#/	prze-	fra	p	.	.	.	.	.	.	.	.
8E\J	8g/J	.	.	.	.	.	.	8g/	-bóg	le	.	.	.	.	.	.	.	.	.
8F#\)	8a/)	.	.	2r	.	.	.	2a/	zóż	Sel-	.	.	.	.	.	.	.	.	.
8r	8r	.	.	.	.	.	.	.	.	.	.	.	.	.	.	.	.	.	.
!	!LO:ART:n=3:color=blue	!	!	!	!	!	!	!	!	!	!	!	!	!	!	!	!	!	!
(>4A\	(<4d#X^</ 4f#/ (>/4ccn^^>	4ryy	.	.	.	.	.	.	.	.	.	.	.	.	.	.	.	.	.
*	*v	*v	*	*	*	*	*	*	*	*	*	*	*	*	*	*	*	*	*
=38	=38	=38	=38	=38	=38	=38	=38	=38	=38	=38	=38	=38	=38	=38	=38	=38	=38	=38
!	!	!	!	!	!	!	!	!	!	!	!	!	!	!	!	!	!	!LO:DY:a:rj:t=p.
8G#X\)	8e/) 8b/)	.	1r	.	.	.	4g#X/	to	-ve	.	2r	.	.	.	4r	.	.	p
8r	8r	.	.	.	.	.	.	.	.	.	.	.	.	.	.	.	.	.
8E'>\L 8e\	(<8g#X/L 8b/	.	.	.	.	.	4r	.	.	.	.	.	.	.	8b\	prze-	fra	.
8E'>\J 8e\	8a/J 8cc#/	.	.	.	.	.	.	.	.	.	.	.	.	.	8cc#\	-bóg	le	.
8E'>\ 8e\	8b/) 8dd/	.	.	.	.	.	2r	.	.	.	4r	.	.	.	2dd\	cóż	sel-	.
8r	8r	.	.	.	.	.	.	.	.	.	.	.	.	.	.	.	.	.
!	!LO:ART:n=4:color=blue	!LO:DY:rj:t=f.	!	!	!	!	!	!	!	!	!	!	!	!	!	!	!	!
4EE/ 4E/	4e'</ 4g#/ 4b/ 4ee^^>/	f	.	.	.	.	.	.	.	.	8e/	prze-	fra	.	.	.	.	.
.	.	.	.	.	.	.	.	.	.	.	8e/	-bóg	le	.	.	.	.	.
!!LO:PB:g=original
=39	=39	=39	=39	=39	=39	=39	=39	=39	=39	=39	=39	=39	=39	=39	=39	=39	=39	=39
*	*^	*	*	*	*	*	*	*	*	*	*	*	*	*	*	*	*	*
8AA/ 8A	8e/ 8a 8cc#	4ryy	.	1r	.	.	.	4r	.	.	.	4.e/	cóż	sel-	.	4cc#\	to?	-ve	.
8r	8r	.	.	.	.	.	.	.	.	.	.	.	.	.	.	.	.	.	.
!	!	!	!LO:DY:rj:t=p.	!	!	!	!LO:CL:ed	!	!	!	!	!	!	!	!	!	!	!	!
*	*	*	*	*	*	*	*	*clefGv2	*	*	*	*	*	*	*	*	*	*	*
(>8A\L	(>8cc#/L	2a\	p	.	.	.	.	8c#\	nie	e	.	.	.	.	.	4r	.	.	.
8B\J	8dd/J	.	.	.	.	.	.	8d\	od-	fra-	.	8e/	to	-ve	.	.	.	.	.
8c#\)	8ee/)	.	.	.	.	.	.	2e\	-cho-	-gian-	.	4e/	za	e	.	2r	.	.	.
8r	8r	.	.	.	.	.	.	.	.	.	.	.	.	.	.	.	.	.	.
!	!LO:ART:color=blue	!	!	!	!	!	!	!	!	!	!	!	!	!	!	!	!	!	!
(>4e\	((4a#X\ 4cc# 4gg^^>	4ryy	.	.	.	.	.	.	.	.	.	4g/	szka-	fra-	.	.	.	.	.
*	*v	*v	*	*	*	*	*	*	*	*	*	*	*	*	*	*	*	*	*
=40	=40	=40	=40	=40	=40	=40	=40	=40	=40	=40	=40	=40	=40	=40	=40	=40	=40	=40
8d#X\)	8b\)) 8ff#	.	1r	.	.	.	4d#X\	-dzi,	-ti.	.	2.f#/	-ra-	-gian-	.	4r	.	.	.
8r	8r	.	.	.	.	.	.	.	.	.	.	.	.	.	.	.	.	.
8BB'>\L 8B\	(8dd#X\L 8ff#\	.	.	.	.	.	4r	.	.	.	.	.	.	.	8dd#X\	i	e	.
8BB'>\J 8B\	8ee\J 8gg\	.	.	.	.	.	.	.	.	.	.	.	.	.	8ee\	nie	fra-	.
4BB'>\ 4B\	4ff#\) 4aa\	.	.	.	.	.	2r	.	.	.	.	.	.	.	4ff#\	ga-	-gian-	.
!	!LO:ART:n=2:color=blue	!LO:DY:rj:t=f.	!	!	!	!	!	!	!	!	!	!	!	!	!	!	!	!
4BB\ 4B\	4b'>\ 4dd#\ 4ff#\ 4bb^^>\	f	.	.	.	.	.	.	.	.	8b\	-da.	-ti	.	8b\	-da.	-ti.	.
.	.	.	.	.	.	.	.	.	.	.	8r	.	.	.	8r	.	.	.
=41	=41	=41	=41	=41	=41	=41	=41	=41	=41	=41	=41	=41	=41	=41	=41	=41	=41	=41
!	!	!LO:DY:rj:t=ff.	!	!	!	!LO:DY:a:rj:t=ff.	!LO:ART:color=blue	!	!	!LO:DY:a:rj:t=ff.	!LO:ART:color=blue	!	!	!LO:DY:a:rj:t=ff.	!	!	!	!LO:DY:a:rj:t=ff.
4E^>\ 4e\	(>4.ee^>\ 4.gg\	ff	(>4e\	precz	.	ff	2e\^^>	precz	var-	ff	2g/^^>	precz	.	ff	2gg^\	Precz	Van-	ff
4BB^>\ 4B\	.	.	4B\)	.	.	.	.	.	.	.	.	.	.	.	.	.	.	.
.	8dd#X\ 8ff#\	.	.	.	.	.	.	.	.	.	.	.	.	.	.	.	.	.
4Cn^>\ 4cn\	8.ee\L 8.gg\	.	4cn\	stąd	.	.	4e\	[stąd	-ne,	.	4g/	[stąd	.	.	4ee\	stąd	-ne,	.
.	16dd#\K 16ff#\	.	.	.	.	.	.	.	.	.	.	.	.	.	.	.	.	.
!	!	!	!	!	!	!	!	!	!	!	!	!	!	!	!LO:TX:t=P:problem=niewyraźny zapis w języku włoskim	!	!	!
4GG^</ 4G\	8.ee\ 8.gg\	.	4Gn\	[na	.	.	4e\	na	sua-	.	4g/	na	.	.	4ee\	na	sua-	.
.	16dd#\Jk) 16ff#\	.	.	.	.	.	.	.	.	.	.	.	.	.	.	.	.	.
=42	=42	=42	=42	=42	=42	=42	=42	=42	=42	=42	=42	=42	=42	=42	=42	=42	=42	=42
!	!	!	!	!	!	!	!LO:ART:color=blue	!	!	!	!LO:ART:color=blue	!	!	!	!LO:ART:color=blue	!	!	!
4Cn\ 4cn\	4..ee^>\ 4..gg\	.	(>4cn\	la-	.	.	2e\^^>	la-	-mi-	.	2g/^^>	la-	.	.	2gg\^^>	la-	-mi-	.
4GG\ 4G\	.	.	4G\)	.	.	.	.	.	.	.	.	.	.	.	.	.	.	.
.	16dd#X\ 16ff#\	.	.	.	.	.	.	.	.	.	.	.	.	.	.	.	.	.
4AA\ 4A\	8.ee\L 8.gg\	.	4A\	-sy	.	.	4e\	-sy,	-rei,	.	4g/	-sy,	.	.	4ee\	-sy,	-rei,	.
.	16dd#\K 16ff#\	.	.	.	.	.	.	.	.	.	.	.	.	.	.	.	.	.
4EE/ 4E/	8.ee\ 8.gg\	.	4E\	na	.	.	4e\	na	sva-	.	4g/	na	.	.	4ee\	na	sva-	.
.	16dd#\Jk 16ff#\	.	.	.	.	.	.	.	.	.	.	.	.	.	.	.	.	.
!!LO:LB:g=original
=43	=43	=43	=43	=43	=43	=43	=43	=43	=43	=43	=43	=43	=43	=43	=43	=43	=43	=43
!	!	!	!	!	!	!	!LO:ART:color=blue	!	!	!	!LO:ART:color=blue	!	!	!	!LO:ART:color=blue	!	!	!
4GG/ 4G/	4..ee^>\ 4..gg\	.	4G\	rze-	.	.	2e\^^>	rze-	-mi-	.	2g/^^>	rze-	.	.	2ee\^^>	rze-	-mi-	.
!LO:ACC:color=blue	!	!	!	!	!	!	!	!	!	!	!	!	!	!	!	!	!	!
4Cn/	.	.	4Cn/	-ki	.	.	.	.	.	.	.	.	.	.	.	.	.	.
.	16dd#X\ 16ff#\	.	.	.	.	.	.	.	.	.	.	.	.	.	.	.	.	.
4E\	8.ee\L 8.gg\	.	4E\	zgiń	.	.	4e\	-ki,	-sci,	.	4g/	-ki,	.	.	4ee\	-ki,	-sci,	.
.	16dd#\K 16ff#\	.	.	.	.	.	.	.	.	.	.	.	.	.	.	.	.	.
4GG/	8.ee\ 8.gg\	.	4GG/	prze-	.	.	4e\	zgiń	e	.	4g/	zgiń	.	.	4ee\	zgiń	e	.
.	16dd#\Jk 16ff#\	.	.	.	.	.	.	.	.	.	.	.	.	.	.	.	.	.
=44	=44	=44	=44	=44	=44	=44	=44	=44	=44	=44	=44	=44	=44	=44	=44	=44	=44	=44
4Cn/	8.ee\L 8.gg\	.	4Cn/	-pa-	.	.	4e\	prze-	per	.	4g/	prze-	.	.	4ee\	prze-	per	.
.	16dd#y\K 16ff#\	.	.	.	.	.	.	.	.	.	.	.	.	.	.	.	.	.
4EE/	8.ee\ 8.gg\	.	4E\	-dnij	.	.	4e\	-pa-	l'e-	.	4g/	-pa-	.	.	4ee\	-pa-	l'e-	.
.	16dd#\Jk 16ff#\	.	.	.	.	.	.	.	.	.	.	.	.	.	.	.	.	.
4GG/	8.ee\L 8.gg\	.	4G\	na	.	.	4e\	-dnij	-ter-	.	4g/	-dnij	.	.	4ee\	-dnij	-ter-	.
.	16dd#\K 16ff#\	.	.	.	.	.	.	.	.	.	.	.	.	.	.	.	.	.
4EE/	8ee\ 8gg\	.	4E\	wie/-	.	.	4e\	na	-ni-	.	4g/	na	.	.	4ee\	na	-ni-	.
.	16r	.	.	.	.	.	.	.	.	.	.	.	.	.	.	.	.	.
.	16dd#\Jk 16ff#\	.	.	.	.	.	.	.	.	.	.	.	.	.	.	.	.	.
=45	=45	=45	=45	=45	=45	=45	=45	=45	=45	=45	=45	=45	=45	=45	=45	=45	=45	=45
*tremolo	*tremolo	*	*	*	*	*	*	*	*	*	*	*	*	*	*	*	*	*
!	!	!LO:DY:rj:t=ff.	!	!	!	!LO:HP:a	!	!	!	!LO:HP:a	!	!	!	!LO:HP:a	!	!	!	!LO:HP:a
16CCn/LL 16GG/	16ee\LL 16cccn\	ff	[1cn	-ki.	.	>]	[1e	wie]-	-ta.	>]	[>1ccn	wie]-	.	>]	[>1gg	wie-	-ta!	>]
16Cn/	16ccn\	.	.	.	.	.	.	.	.	.	.	.	.	.	.	.	.	.
16CC/ 16GG	16ee\ 16ccc\	.	.	.	.	.	.	.	.	.	.	.	.	.	.	.	.	.
16C/	16cc\	.	.	.	.	.	.	.	.	.	.	.	.	.	.	.	.	.
16CC/ 16GG/	16ee\ 16ccc\	.	.	.	.	.	.	.	.	.	.	.	.	.	.	.	.	.
16C/	16cc\	.	.	.	.	.	.	.	.	.	.	.	.	.	.	.	.	.
16CC/ 16GG/	16ee\ 16ccc\	.	.	.	.	.	.	.	.	.	.	.	.	.	.	.	.	.
16Cn/JJ	16cc\JJ	.	.	.	.	.	.	.	.	.	.	.	.	.	.	.	.	.
16CC/LL 16GG/	16ee\LL 16ccc\	.	.	.	.	.	.	.	.	.	.	.	.	.	.	.	.	.
16Cn/	16cc\	.	.	.	.	.	.	.	.	.	.	.	.	.	.	.	.	.
16CC/ 16GG/	16ee\ 16ccc\	.	.	.	.	.	.	.	.	.	.	.	.	.	.	.	.	.
16Cn/	16cc\	.	.	.	.	.	.	.	.	.	.	.	.	.	.	.	.	.
16CC/ 16GG/	16ee\ 16ccc\	.	.	.	.	.	.	.	.	.	.	.	.	.	.	.	.	.
16Cn/	16cc\	.	.	.	.	.	.	.	.	.	.	.	.	.	.	.	.	.
16CC/ 16GG/	16ee\ 16ccc\	.	.	.	.	.	.	.	.	.	.	.	.	.	.	.	.	.
16C/JJ	16cc\JJ	.	.	.	.	.	.	.	.	.	.	.	.	.	.	.	.	.
*	*Xtremolo	*	*	*	*	*	*	*	*	*	*	*	*	*	*	*	*	*
=46	=46	=46	=46	=46	=46	=46	=46	=46	=46	=46	=46	=46	=46	=46	=46	=46	=46	=46
16CCn/LL 16GG	8gg\L	.	4c\]	.	.	.	4e\]	-ki.	.	.	4cc\]	-ki.	.	.	4gg\]	-ki.	.	.
16Cn/	.	.	.	.	.	.	.	.	.	.	.	.	.	.	.	.	.	.
16CC/ 16GG	8ee\	.	.	.	.	.	.	.	.	.	.	.	.	.	.	.	.	.
16C/	.	.	.	.	.	.	.	.	.	.	.	.	.	.	.	.	.	.
16CC/ 16GG	8ccn\	.	4r	.	.	.	4r	.	.	.	4r	.	.	.	4r	.	.	.
16C/	.	.	.	.	.	.	.	.	.	.	.	.	.	.	.	.	.	.
16CC/ 16GG	8dd\J	.	.	.	.	.	.	.	.	.	.	.	.	.	.	.	.	.
16Cn/JJ	.	.	.	.	.	.	.	.	.	.	.	.	.	.	.	.	.	.
16CC/LL 16GG	8ee\L	.	2r	.	.	.	2r	.	.	.	2r	.	.	.	2r	.	.	.
16Cn/	.	.	.	.	.	.	.	.	.	.	.	.	.	.	.	.	.	.
16CC/ 16GG	8cc\	.	.	.	.	.	.	.	.	.	.	.	.	.	.	.	.	.
16Cn/	.	.	.	.	.	.	.	.	.	.	.	.	.	.	.	.	.	.
16CC/ 16GG	8g\	.	.	.	.	.	.	.	.	.	.	.	.	.	.	.	.	.
16Cn/	.	.	.	.	.	.	.	.	.	.	.	.	.	.	.	.	.	.
16CC/ 16GG	8e\J	.	.	.	.	.	.	.	.	.	.	.	.	.	.	.	.	.
!LO:TX:b:i:t=V&colon;S&colon;	!	!	!	!	!	!	!	!	!	!	!	!	!	!	!	!	!	!
16C/JJ	.	.	.	.	.	.	.	.	.	.	.	.	.	.	.	.	.	.
*Xtremolo	*	*	*	*	*	*	*	*	*	*	*	*	*	*	*	*	*	*
!!LO:PB:g=original
=47	=47	=47	=47	=47	=47	=47	=47	=47	=47	=47	=47	=47	=47	=47	=47	=47	=47	=47
!	!	!	!	!	!	!	!	!	!	!	!	!	!	!LO:DY:a	!	!	!	!LO:DY:B:a:t=pp.
4CCn/	4cn/	.	2Cn/	prze-	.	.	2Cn/	prze-	Giu-	.	2cn/	prze-	.	pp	2cn/	Prze-	Giu-	pp
*	*tremolo	*	*	*	*	*	*	*	*	*	*	*	*	*	*	*	*	*
(<8GG/L	8e/L 8g/	.	.	.	.	.	.	.	.	.	.	.	.	.	.	.	.	.
8EE/J	8c/	.	.	.	.	.	.	.	.	.	.	.	.	.	.	.	.	.
4CC/)	8e/ 8g/	.	4C/	-[bóg	.	.	4C/	-[bóg	-sto	.	4c/	-[bóg	.	.	4c/	-bóg	-sto	.
.	8c/	.	.	.	.	.	.	.	.	.	.	.	.	.	.	.	.	.
(<8GG/L	8e/ 8g/	.	4C/	cóż	.	.	4C/	cóż	ciel,	.	4c/	cóż	.	.	4c/	cóż	ciel!	.
8EE/J	8c/J	.	.	.	.	.	.	.	.	.	.	.	.	.	.	.	.	.
=48	=48	=48	=48	=48	=48	=48	=48	=48	=48	=48	=48	=48	=48	=48	=48	=48	=48	=48
8CCn/L)	8e/L 8g/	.	2Cn/	to	.	.	2Cn/	to	quel	.	2cn/	to	.	.	2cn/	to	quel	.
8EE/	8cn/	.	.	.	.	.	.	.	.	.	.	.	.	.	.	.	.	.
8GG/	8e/ 8g/	.	.	.	.	.	.	.	.	.	.	.	.	.	.	.	.	.
8EE/J	8cn/J	.	.	.	.	.	.	.	.	.	.	.	.	.	.	.	.	.
4CC'</	8e/L 8g/	.	4C/	za	.	.	4C/	za	lar-	.	4c/	za	.	.	4c/	za	lar-	.
.	8cn/	.	.	.	.	.	.	.	.	.	.	.	.	.	.	.	.	.
(<8GG/L	8e/ 8g/	.	4C/	szka-	.	.	4C/	szka-	-va	.	4c/	szka-	.	.	4c/	szka-	-va	.
8EE/J)	8cn/J	.	.	.	.	.	.	.	.	.	.	.	.	.	.	.	.	.
=49	=49	=49	=49	=49	=49	=49	=49	=49	=49	=49	=49	=49	=49	=49	=49	=49	=49	=49
!	!	!	!LO:ART:color=blue	!	!	!	!LO:ART:color=blue	!	!	!	!LO:ART:color=blue	!	!	!	!LO:ART:color=blue	!	!	!
4CC#X'</	8e/L 8a/	.	[<1C#X^^>	-ra-	.	.	[<1C#X^^>	-ra-	stra-	.	[<1c#X^^>	-ra-	.	.	[<1c#X^^>	-ra-	stra-	.
.	8A/	.	.	.	.	.	.	.	.	.	.	.	.	.	.	.	.	.
(<8AA/L	8e/ 8a/	.	.	.	.	.	.	.	.	.	.	.	.	.	.	.	.	.
8EE/J	8A/J	.	.	.	.	.	.	.	.	.	.	.	.	.	.	.	.	.
4CC#/)	8e/L 8a/	.	.	.	.	.	.	.	.	.	.	.	.	.	.	.	.	.
.	8A/	.	.	.	.	.	.	.	.	.	.	.	.	.	.	.	.	.
4AAA'</ 4AA	8e/ 8a/	.	.	.	.	.	.	.	.	.	.	.	.	.	.	.	.	.
.	8A/J	.	.	.	.	.	.	.	.	.	.	.	.	.	.	.	.	.
=50	=50	=50	=50	=50	=50	=50	=50	=50	=50	=50	=50	=50	=50	=50	=50	=50	=50	=50
*	*rep	*	*	*	*	*	*	*	*	*	*	*	*	*	*	*	*	*
(<8CC#/L	8e/L 8a/	.	2C#/]	.	.	.	2C#/]	.	.	.	2c#/]	.	.	.	2c#/]	.	.	.
8EE/	8A/	.	.	.	.	.	.	.	.	.	.	.	.	.	.	.	.	.
8AA/	8e/ 8a/	.	.	.	.	.	.	.	.	.	.	.	.	.	.	.	.	.
8EE/J	8A/J	.	.	.	.	.	.	.	.	.	.	.	.	.	.	.	.	.
4CC#'</)	8e/L 8a/	.	2C#/	-da!	.	.	2C#/	-da!	-na!	.	2c#/	-da!	.	.	2c#/	-da!	-na!	.
.	8A/	.	.	.	.	.	.	.	.	.	.	.	.	.	.	.	.	.
4AAA'/ 4AA/	8e/ 8a/	.	.	.	.	.	.	.	.	.	.	.	.	.	.	.	.	.
.	8A/J	.	.	.	.	.	.	.	.	.	.	.	.	.	.	.	.	.
*	*Xrep	*	*	*	*	*	*	*	*	*	*	*	*	*	*	*	*	*
=51	=51	=51	=51	=51	=51	=51	=51	=51	=51	=51	=51	=51	=51	=51	=51	=51	=51	=51
4DD-X/	8fn/L	.	2D-X/	prze-	.	.	2D-X/	prze-	.	.	2d-X/	prze-	.	.	2d-X/	prze-	giu-	.
.	8B-X/	.	.	.	.	.	.	.	.	.	.	.	.	.	.	.	.	.
(<8BB-X/L	8f/	.	.	.	.	.	.	.	.	.	.	.	.	.	.	.	.	.
8FFn/J	8B-X/J	.	.	.	.	.	.	.	.	.	.	.	.	.	.	.	.	.
4DD-/)	8f/L	.	4D-/	-bóg	.	.	4D-/	-bóg	.	.	4d-/	-bóg	.	.	4d-/	-bóg	-sto	.
.	8B-/	.	.	.	.	.	.	.	.	.	.	.	.	.	.	.	.	.
(<8BB-/L	8f/	.	4D-/	cóż]	.	.	4D-/	cóż]	.	.	4d-/	cóż]	.	.	4d-/	cóż	ciel!	.
8FF/J)	8B-/J	.	.	.	.	.	.	.	.	.	.	.	.	.	.	.	.	.
!!LO:LB:g=original
=52	=52	=52	=52	=52	=52	=52	=52	=52	=52	=52	=52	=52	=52	=52	=52	=52	=52	=52
(<8DD-X/L	8fn/L	.	2D-X\	to	.	.	2D-X/	to	.	.	2d-X/	to	.	.	2d-X/	to	quel	.
8FFn/	8B-X/	.	.	.	.	.	.	.	.	.	.	.	.	.	.	.	.	.
8BB-X/	8f/	.	.	.	.	.	.	.	.	.	.	.	.	.	.	.	.	.
8FF/J)	8B-/J	.	.	.	.	.	.	.	.	.	.	.	.	.	.	.	.	.
4DD-X'</	8f/L	.	4D-\	[za	.	.	4D-/	[za	.	.	4d-/	[za	.	.	4d-/	za	lar-	.
.	8B-/	.	.	.	.	.	.	.	.	.	.	.	.	.	.	.	.	.
4BBB-X'</ 4BB-/	8f/	.	4D-\	szka-	.	.	4D-/	szka-	.	.	4d-/	szka-	.	.	4d-/	szka-	-va	.
.	8B-/J	.	.	.	.	.	.	.	.	.	.	.	.	.	.	.	.	.
=53	=53	=53	=53	=53	=53	=53	=53	=53	=53	=53	=53	=53	=53	=53	=53	=53	=53	=53
!	!	!	!LO:ART:color=blue	!	!	!	!LO:ART:color=blue	!	!	!	!LO:ART:color=blue	!	!	!	!LO:ART:color=blue	!	!	!
4DDn'</	8d/L 8f#X/	.	[1Dn^^>	-ra-	.	.	[<1Dn^^>	-ra-	.	.	[<1dn^^>	-ra-	.	.	[<1dn^^>	-ra-	stra-	.
.	8A/	.	.	.	.	.	.	.	.	.	.	.	.	.	.	.	.	.
(<8AA/L	8d/ 8f#/	.	.	.	.	.	.	.	.	.	.	.	.	.	.	.	.	.
8FF#X/J	8A/J	.	.	.	.	.	.	.	.	.	.	.	.	.	.	.	.	.
4DD/)	8d/L 8f#/	.	.	.	.	.	.	.	.	.	.	.	.	.	.	.	.	.
.	8A/	.	.	.	.	.	.	.	.	.	.	.	.	.	.	.	.	.
4AAA'</ 4AA/	8d/ 8f#/	.	.	.	.	.	.	.	.	.	.	.	.	.	.	.	.	.
.	8A/J	.	.	.	.	.	.	.	.	.	.	.	.	.	.	.	.	.
=54	=54	=54	=54	=54	=54	=54	=54	=54	=54	=54	=54	=54	=54	=54	=54	=54	=54	=54
*	*rep	*	*	*	*	*	*	*	*	*	*	*	*	*	*	*	*	*
(<8DD/L	8d/L 8f#X	.	2D\]	.	.	.	2D/]	.	.	.	2d/]	.	.	.	2d/]	.	.	.
8FF#/	8A/	.	.	.	.	.	.	.	.	.	.	.	.	.	.	.	.	.
8AA/	8d/ 8f#	.	.	.	.	.	.	.	.	.	.	.	.	.	.	.	.	.
8FF#/J)	8A/J	.	.	.	.	.	.	.	.	.	.	.	.	.	.	.	.	.
!	!	!	!	!	!	!	!	!	!	!	!LO:ART:color=blue	!	!	!	!	!	!	!
4DD'</	8d/L 8f#	.	4D\	-da!	.	.	4D/	-da!	.	.	4d/,>	-da!	.	.	4d/	-da!	-na!	.
.	8A/	.	.	.	.	.	.	.	.	.	.	.	.	.	.	.	.	.
!	!	!	!	!	!	!	!	!	!	!	!	!	!	!	!LO:TX:a:B:t=|:color=blue:rj	!	!	!
4DD'</ 4D/	8d/ 8f#	.	4D\	i	.	.	4D/	i	.	.	4d/	i	.	.	4d/	i	non	.
.	8A/J	.	.	.	.	.	.	.	.	.	.	.	.	.	.	.	.	.
*	*Xtremolo	*	*	*	*	*	*	*	*	*	*	*	*	*	*	*	*	*
*	*Xrep	*	*	*	*	*	*	*	*	*	*	*	*	*	*	*	*	*
=55	=55	=55	=55	=55	=55	=55	=55	=55	=55	=55	=55	=55	=55	=55	=55	=55	=55	=55
!	!	!	!	!	!	!LO:HP:a	!	!	!	!LO:HP:a	!	!	!	!LO:HP:a	!	!	!	!LO:HP:a
*ped	*	*	*	*	*	*	*	*	*	*	*	*	*	*	*	*	*	*
4EE-X/ 4E-X^>/	4.G/ 4.g/	.	[>1E-X	mil]-	.	>]	[>1G	mil]-	.	>]	[>1cn	mil]-	.	>]	[>1g	mil-	par-	>]
*tremolo	*	*	*	*	*	*	*	*	*	*	*	*	*	*	*	*	*	*
8E-\L 8G\	.	.	.	.	.	.	.	.	.	.	.	.	.	.	.	.	.	.
8cn\	8e-X/	.	.	.	.	.	.	.	.	.	.	.	.	.	.	.	.	.
8E-\ 8G\	8cn/L	.	.	.	.	.	.	.	.	.	.	.	.	.	.	.	.	.
8cn\	8d/	.	.	.	.	.	.	.	.	.	.	.	.	.	.	.	.	.
8E-\ 8G\	8e-/	.	.	.	.	.	.	.	.	.	.	.	.	.	.	.	.	.
8cn\J	8fn/J	<	.	.	.	.	.	.	.	.	.	.	.	.	.	.	.	.
=56	=56	=56	=56	=56	=56	=56	=56	=56	=56	=56	=56	=56	=56	=56	=56	=56	=56	=56
8E-X\L 8G\	8g\L	.	1E-]	.	.	.	1G]	.	.	.	1c]	.	.	.	1g]	.	.	.
8cn\	8a\	.	.	.	.	.	.	.	.	.	.	.	.	.	.	.	.	.
8E-\ 8G\	8bn\	.	.	.	.	.	.	.	.	.	.	.	.	.	.	.	.	.
8cn\J	8ccn\J	.	.	.	.	.	.	.	.	.	.	.	.	.	.	.	.	.
8E-\L 8G\	8dd\L	.	.	.	.	.	.	.	.	.	.	.	.	.	.	.	.	.
8c\	8ee-X\	.	.	.	.	.	.	.	.	.	.	.	.	.	.	.	.	.
8E-\ 8G\	8ffn\	.	.	.	.	.	.	.	.	.	.	.	.	.	.	.	.	.
8c\J	8gg\J	[[	.	.	.	.	.	.	.	.	.	.	.	.	.	.	.	.
*Xtremolo	*	*	*	*	*	*	*	*	*	*	*	*	*	*	*	*	*	*
!!LO:PB:g=original
=57	=57	=57	=57	=57	=57	=57	=57	=57	=57	=57	=57	=57	=57	=57	=57	=57	=57	=57
!	!	!LO:DY:rj:t=sf.	!	!	!	!	!	!	!	!	!	!	!	!	!	!	!	!
4D\ 4F#\ 4A\	4aa\	sf	4D/	-czy	.	.	4A/	-czy	.	.	4d/	-czy	.	.	4f#/	-czy	-la!	.
*clefG2	*	*	*	*	*	*	*	*	*	*	*	*	*	*	*	*	*	*
!	!	!LO:DY:t=pp.	!	!	!	!	!	!	!	!	!	!	!	!	!	!	!	!
8d'</L 8a/	(>8ff#\L 8aa\	pp	4r	.	.	.	4r	.	.	.	4r	.	.	.	4r	.	.	.
8d'</J 8a/	8gg\J 8bb\	.	.	.	.	.	.	.	.	.	.	.	.	.	.	.	.	.
4d'</ 4a/	4aa'>\) 4cccn\	.	2r	.	.	.	2r	.	.	.	2r	.	.	.	2r	.	.	.
*clefF4	*Xtremolo	*	*	*	*	*	*	*	*	*	*	*	*	*	*	*	*	*
4d\	8dd'>\L 8ff#\	.	.	.	.	.	.	.	.	.	.	.	.	.	.	.	.	.
.	8dd'>\J 8ff#\	.	.	.	.	.	.	.	.	.	.	.	.	.	.	.	.	.
=58	=58	=58	=58	=58	=58	=58	=58	=58	=58	=58	=58	=58	=58	=58	=58	=58	=58	=58
4A\	4a\ 4aa\	.	4r	.	.	.	4r	.	.	.	4r	.	.	.	4r	.	.	.
4F#\	8f#/L 8a/	.	4D\	[i	.	.	4D/	[i	.	.	4d/	[i	.	.	4d/	i	ne's-	.
.	8f#/J 8a/	.	.	.	.	.	.	.	.	.	.	.	.	.	.	.	.	.
4D\	4d/ 4dd/	.	4D\	nie	.	.	4D/	nie	.	.	4d/	nie	.	.	4d/	nie	-al-	.
4DD/	4d'</	.	4D\	prze-	.	.	4D/	prze-	.	.	4d/	prze-	.	.	4d/	prze-	-lon-	.
=59	=59	=59	=59	=59	=59	=59	=59	=59	=59	=59	=59	=59	=59	=59	=59	=59	=59	=59
!	!	!	!	!	!	!LO:HP:a	!	!	!	!LO:HP:a	!	!	!	!LO:HP:a	!	!	!	!LO:HP:a
4EE-X^>/ 4E-X	4.G/ 4.g	.	[>1E-X	-pa]-	.	>]	[>1G	-pa]-	.	>]	[>1cn	-pa]-	.	>]	[>1g	-pa-	-ta-	>]
*tremolo	*	*	*	*	*	*	*	*	*	*	*	*	*	*	*	*	*	*
8E-\L 8G\	.	.	.	.	.	.	.	.	.	.	.	.	.	.	.	.	.	.
8cn\	8e-X/	.	.	.	.	.	.	.	.	.	.	.	.	.	.	.	.	.
8E-\ 8G\	8cn/L	.	.	.	.	.	.	.	.	.	.	.	.	.	.	.	.	.
8c\	8d/	.	.	.	.	.	.	.	.	.	.	.	.	.	.	.	.	.
8E-\ 8G\	8e-/	.	.	.	.	.	.	.	.	.	.	.	.	.	.	.	.	.
8c\J	8fn/J	.	.	.	.	.	.	.	.	.	.	.	.	.	.	.	.	.
=60	=60	=60	=60	=60	=60	=60	=60	=60	=60	=60	=60	=60	=60	=60	=60	=60	=60	=60
8E-X\L 8G\	8g\L	.	1E-]	.	.	.	1G]	.	.	.	1c]	.	.	.	1g]	.	.	.
8cn\	8a\	.	.	.	.	.	.	.	.	.	.	.	.	.	.	.	.	.
8E-\ 8G\	8bn\	.	.	.	.	.	.	.	.	.	.	.	.	.	.	.	.	.
8c\J	8ccn\J	.	.	.	.	.	.	.	.	.	.	.	.	.	.	.	.	.
8E-\L 8G\	8dd\L	.	.	.	.	.	.	.	.	.	.	.	.	.	.	.	.	.
8c\	8ee-X\	.	.	.	.	.	.	.	.	.	.	.	.	.	.	.	.	.
8E-\ 8G\	8ffn\	.	.	.	.	.	.	.	.	.	.	.	.	.	.	.	.	.
8c\J	8gg\J	.	.	.	.	.	.	.	.	.	.	.	.	.	.	.	.	.
*Xtremolo	*	*	*	*	*	*	*	*	*	*	*	*	*	*	*	*	*	*
=61	=61	=61	=61	=61	=61	=61	=61	=61	=61	=61	=61	=61	=61	=61	=61	=61	=61	=61
4D\ 4F#\ 4A\	4aa\	.	4D/	-da.	.	.	4A/	-da.	.	.	4d/	-da.	.	.	4f#/	-da.	-na	.
*clefG2	*	*	*	*	*	*	*	*	*	*	*	*	*	*	*	*	*	*
8d/L 8a/	8dd\L 8ff#\	.	4r	.	.	.	4r	.	.	.	4r	.	.	.	4r	.	.	.
8d/J 8a/	8ee\J 8gg\	.	.	.	.	.	.	.	.	.	.	.	.	.	.	.	.	.
4d/ 4a/	4ff#\ 4aa\	.	2r	.	.	.	2r	.	.	.	2r	.	.	.	2r	.	.	.
*clefF4	*	*	*	*	*	*	*	*	*	*	*	*	*	*	*	*	*	*
4f#\	8a/L 8dd/	.	.	.	.	.	.	.	.	.	.	.	.	.	.	.	.	.
.	8a/J 8dd/	.	.	.	.	.	.	.	.	.	.	.	.	.	.	.	.	.
!!LO:LB:g=original
=62	=62	=62	=62	=62	=62	=62	=62	=62	=62	=62	=62	=62	=62	=62	=62	=62	=62	=62
4d\	4f#\ 4ff#/	.	1r	.	.	.	1r	.	.	.	1r	.	.	.	1r	.	.	.
4A\	8d/L 8f#/	.	.	.	.	.	.	.	.	.	.	.	.	.	.	.	.	.
.	8d/J 8f#/	.	.	.	.	.	.	.	.	.	.	.	.	.	.	.	.	.
4F#\	4A/ 4a/	.	.	.	.	.	.	.	.	.	.	.	.	.	.	.	.	.
4AA/	8A/L	.	.	.	.	.	.	.	.	.	.	.	.	.	.	.	.	.
.	8A/J	.	.	.	.	.	.	.	.	.	.	.	.	.	.	.	.	.
=63	=63	=63	=63	=63	=63	=63	=63	=63	=63	=63	=63	=63	=63	=63	=63	=63	=63	=63
4D\	4d/	.	1r	.	.	.	1r	.	.	.	1r	.	.	.	1r	.	.	.
4FF#\	8F#</L	.	.	.	.	.	.	.	.	.	.	.	.	.	.	.	.	.
.	8F#</J	.	.	.	.	.	.	.	.	.	.	.	.	.	.	.	.	.
4AA\	4A</	.	.	.	.	.	.	.	.	.	.	.	.	.	.	.	.	.
4DD\	8D</L	.	.	.	.	.	.	.	.	.	.	.	.	.	.	.	.	.
.	8D</J	.	.	.	.	.	.	.	.	.	.	.	.	.	.	.	.	.
=64	=64	=64	=64	=64	=64	=64	=64	=64	=64	=64	=64	=64	=64	=64	=64	=64	=64	=64
4FF#\	4F#</	.	1r	.	.	.	1r	.	.	.	1r	.	.	.	1r	.	.	.
4DD\	8D</L	.	.	.	.	.	.	.	.	.	.	.	.	.	.	.	.	.
.	8D</J	.	.	.	.	.	.	.	.	.	.	.	.	.	.	.	.	.
4AAA\	4AA</	.	.	.	.	.	.	.	.	.	.	.	.	.	.	.	.	.
4FFF#\	4FF#</	.	.	.	.	.	.	.	.	.	.	.	.	.	.	.	.	.
=65	=65	=65	=65	=65	=65	=65	=65	=65	=65	=65	=65	=65	=65	=65	=65	=65	=65	=65
*tremolo	*	*	*	*	*	*	*	*	*	*	*	*	*	*	*	*	*	*
32DD;>/LLL	1r;>	.	1r	.	.	.	1r	.	.	.	1r	.	.	.	1r;	.	.	.
32D/	.	.	.	.	.	.	.	.	.	.	.	.	.	.	.	.	.	.
32DD/	.	.	.	.	.	.	.	.	.	.	.	.	.	.	.	.	.	.
32D/	.	.	.	.	.	.	.	.	.	.	.	.	.	.	.	.	.	.
32DD/	.	.	.	.	.	.	.	.	.	.	.	.	.	.	.	.	.	.
32D/	.	.	.	.	.	.	.	.	.	.	.	.	.	.	.	.	.	.
32DD/	.	.	.	.	.	.	.	.	.	.	.	.	.	.	.	.	.	.
32D/	.	.	.	.	.	.	.	.	.	.	.	.	.	.	.	.	.	.
32DD/	.	.	.	.	.	.	.	.	.	.	.	.	.	.	.	.	.	.
32D/	.	.	.	.	.	.	.	.	.	.	.	.	.	.	.	.	.	.
32DD/	.	.	.	.	.	.	.	.	.	.	.	.	.	.	.	.	.	.
32D/	.	.	.	.	.	.	.	.	.	.	.	.	.	.	.	.	.	.
32DD/	.	.	.	.	.	.	.	.	.	.	.	.	.	.	.	.	.	.
32D/	.	.	.	.	.	.	.	.	.	.	.	.	.	.	.	.	.	.
32DD/	.	.	.	.	.	.	.	.	.	.	.	.	.	.	.	.	.	.
32D/	.	.	.	.	.	.	.	.	.	.	.	.	.	.	.	.	.	.
32DD/	.	.	.	.	.	.	.	.	.	.	.	.	.	.	.	.	.	.
32D/	.	.	.	.	.	.	.	.	.	.	.	.	.	.	.	.	.	.
32DD/	.	.	.	.	.	.	.	.	.	.	.	.	.	.	.	.	.	.
32D/	.	.	.	.	.	.	.	.	.	.	.	.	.	.	.	.	.	.
32DD/	.	.	.	.	.	.	.	.	.	.	.	.	.	.	.	.	.	.
32D/	.	.	.	.	.	.	.	.	.	.	.	.	.	.	.	.	.	.
32DD/	.	.	.	.	.	.	.	.	.	.	.	.	.	.	.	.	.	.
32D/	.	.	.	.	.	.	.	.	.	.	.	.	.	.	.	.	.	.
32DD/	.	.	.	.	.	.	.	.	.	.	.	.	.	.	.	.	.	.
32D/	.	.	.	.	.	.	.	.	.	.	.	.	.	.	.	.	.	.
32DD/	.	.	.	.	.	.	.	.	.	.	.	.	.	.	.	.	.	.
32D/	.	.	.	.	.	.	.	.	.	.	.	.	.	.	.	.	.	.
32DD/	.	.	.	.	.	.	.	.	.	.	.	.	.	.	.	.	.	.
32D/	.	.	.	.	.	.	.	.	.	.	.	.	.	.	.	.	.	.
32DD/	.	.	.	.	.	.	.	.	.	.	.	.	.	.	.	.	.	.
32D/JJJ	.	.	.	.	.	.	.	.	.	.	.	.	.	.	.	.	.	.
=66	=66	=66	=66	=66	=66	=66	=66	=66	=66	=66	=66	=66	=66	=66	=66	=66	=66	=66
32CC#;>/LLL	1r;>	.	1r	.	.	.	1r	.	.	.	1r	.	.	.	1r;	.	.	.
32C#/	.	.	.	.	.	.	.	.	.	.	.	.	.	.	.	.	.	.
32CC#/	.	.	.	.	.	.	.	.	.	.	.	.	.	.	.	.	.	.
32C#/	.	.	.	.	.	.	.	.	.	.	.	.	.	.	.	.	.	.
32CC#/	.	.	.	.	.	.	.	.	.	.	.	.	.	.	.	.	.	.
32C#/	.	.	.	.	.	.	.	.	.	.	.	.	.	.	.	.	.	.
32CC#/	.	.	.	.	.	.	.	.	.	.	.	.	.	.	.	.	.	.
32C#/	.	.	.	.	.	.	.	.	.	.	.	.	.	.	.	.	.	.
32CC#/	.	.	.	.	.	.	.	.	.	.	.	.	.	.	.	.	.	.
32C#/	.	.	.	.	.	.	.	.	.	.	.	.	.	.	.	.	.	.
32CC#/	.	.	.	.	.	.	.	.	.	.	.	.	.	.	.	.	.	.
32C#/	.	.	.	.	.	.	.	.	.	.	.	.	.	.	.	.	.	.
32CC#/	.	.	.	.	.	.	.	.	.	.	.	.	.	.	.	.	.	.
32C#/	.	.	.	.	.	.	.	.	.	.	.	.	.	.	.	.	.	.
32CC#/	.	.	.	.	.	.	.	.	.	.	.	.	.	.	.	.	.	.
32C#/	.	.	.	.	.	.	.	.	.	.	.	.	.	.	.	.	.	.
32CC#/	.	.	.	.	.	.	.	.	.	.	.	.	.	.	.	.	.	.
32C#/	.	.	.	.	.	.	.	.	.	.	.	.	.	.	.	.	.	.
32CC#/	.	.	.	.	.	.	.	.	.	.	.	.	.	.	.	.	.	.
32C#/	.	.	.	.	.	.	.	.	.	.	.	.	.	.	.	.	.	.
32CC#/	.	.	.	.	.	.	.	.	.	.	.	.	.	.	.	.	.	.
32C#/	.	.	.	.	.	.	.	.	.	.	.	.	.	.	.	.	.	.
32CC#/	.	.	.	.	.	.	.	.	.	.	.	.	.	.	.	.	.	.
32C#/	.	.	.	.	.	.	.	.	.	.	.	.	.	.	.	.	.	.
32CC#/	.	.	.	.	.	.	.	.	.	.	.	.	.	.	.	.	.	.
32C#/	.	.	.	.	.	.	.	.	.	.	.	.	.	.	.	.	.	.
32CC#/	.	.	.	.	.	.	.	.	.	.	.	.	.	.	.	.	.	.
32C#/	.	.	.	.	.	.	.	.	.	.	.	.	.	.	.	.	.	.
32CC#/	.	.	.	.	.	.	.	.	.	.	.	.	.	.	.	.	.	.
32C#/	.	.	.	.	.	.	.	.	.	.	.	.	.	.	.	.	.	.
32CC#/	.	.	.	.	.	.	.	.	.	.	.	.	.	.	.	.	.	.
32C#/JJJ	.	.	.	.	.	.	.	.	.	.	.	.	.	.	.	.	.	.
=67	=67	=67	=67	=67	=67	=67	=67	=67	=67	=67	=67	=67	=67	=67	=67	=67	=67	=67
32BBB;>/LLL	1r;>	.	1r	.	.	.	1r	.	.	.	1r	.	.	.	1r;	.	.	.
32BB/	.	.	.	.	.	.	.	.	.	.	.	.	.	.	.	.	.	.
32BBB/	.	.	.	.	.	.	.	.	.	.	.	.	.	.	.	.	.	.
32BB/	.	.	.	.	.	.	.	.	.	.	.	.	.	.	.	.	.	.
32BBB/	.	.	.	.	.	.	.	.	.	.	.	.	.	.	.	.	.	.
32BB/	.	.	.	.	.	.	.	.	.	.	.	.	.	.	.	.	.	.
32BBB/	.	.	.	.	.	.	.	.	.	.	.	.	.	.	.	.	.	.
32BB/	.	.	.	.	.	.	.	.	.	.	.	.	.	.	.	.	.	.
32BBB/	.	.	.	.	.	.	.	.	.	.	.	.	.	.	.	.	.	.
32BB/	.	.	.	.	.	.	.	.	.	.	.	.	.	.	.	.	.	.
32BBB/	.	.	.	.	.	.	.	.	.	.	.	.	.	.	.	.	.	.
32BB/	.	.	.	.	.	.	.	.	.	.	.	.	.	.	.	.	.	.
32BBB/	.	.	.	.	.	.	.	.	.	.	.	.	.	.	.	.	.	.
32BB/	.	.	.	.	.	.	.	.	.	.	.	.	.	.	.	.	.	.
32BBB/	.	.	.	.	.	.	.	.	.	.	.	.	.	.	.	.	.	.
32BB/	.	.	.	.	.	.	.	.	.	.	.	.	.	.	.	.	.	.
32BBB/	.	.	.	.	.	.	.	.	.	.	.	.	.	.	.	.	.	.
32BB/	.	.	.	.	.	.	.	.	.	.	.	.	.	.	.	.	.	.
32BBB/	.	.	.	.	.	.	.	.	.	.	.	.	.	.	.	.	.	.
32BB/	.	.	.	.	.	.	.	.	.	.	.	.	.	.	.	.	.	.
32BBB/	.	.	.	.	.	.	.	.	.	.	.	.	.	.	.	.	.	.
32BB/	.	.	.	.	.	.	.	.	.	.	.	.	.	.	.	.	.	.
32BBB/	.	.	.	.	.	.	.	.	.	.	.	.	.	.	.	.	.	.
32BB/	.	.	.	.	.	.	.	.	.	.	.	.	.	.	.	.	.	.
32BBB/	.	.	.	.	.	.	.	.	.	.	.	.	.	.	.	.	.	.
32BB/	.	.	.	.	.	.	.	.	.	.	.	.	.	.	.	.	.	.
32BBB/	.	.	.	.	.	.	.	.	.	.	.	.	.	.	.	.	.	.
32BB/	.	.	.	.	.	.	.	.	.	.	.	.	.	.	.	.	.	.
32BBB/	.	.	.	.	.	.	.	.	.	.	.	.	.	.	.	.	.	.
32BB/	.	.	.	.	.	.	.	.	.	.	.	.	.	.	.	.	.	.
32BBB/	.	.	.	.	.	.	.	.	.	.	.	.	.	.	.	.	.	.
!LO:TX:b:i:t=V&colon;S&colon;	!	!	!	!	!	!	!	!	!	!	!	!	!	!	!	!	!	!
32BB/JJJ	.	.	.	.	.	.	.	.	.	.	.	.	.	.	.	.	.	.
!!LO:PB:g=original
=68	=68	=68	=68	=68	=68	=68	=68	=68	=68	=68	=68	=68	=68	=68	=68	=68	=68	=68
32FFF#;>/LLL	1ryy	.	2r;>	.	.	.	2r;>	.	.	.	2r;>	.	.	.	2r;>	.	.	.
32FF#/	.	.	.	.	.	.	.	.	.	.	.	.	.	.	.	.	.	.
32FFF#/	.	.	.	.	.	.	.	.	.	.	.	.	.	.	.	.	.	.
32FF#/	.	.	.	.	.	.	.	.	.	.	.	.	.	.	.	.	.	.
32FFF#/	.	.	.	.	.	.	.	.	.	.	.	.	.	.	.	.	.	.
32FF#/	.	.	.	.	.	.	.	.	.	.	.	.	.	.	.	.	.	.
32FFF#/	.	.	.	.	.	.	.	.	.	.	.	.	.	.	.	.	.	.
32FF#/	.	.	.	.	.	.	.	.	.	.	.	.	.	.	.	.	.	.
32FFF#/	.	.	.	.	.	.	.	.	.	.	.	.	.	.	.	.	.	.
32FF#/	.	.	.	.	.	.	.	.	.	.	.	.	.	.	.	.	.	.
32FFF#/	.	.	.	.	.	.	.	.	.	.	.	.	.	.	.	.	.	.
32FF#/	.	.	.	.	.	.	.	.	.	.	.	.	.	.	.	.	.	.
32FFF#/	.	.	.	.	.	.	.	.	.	.	.	.	.	.	.	.	.	.
32FF#/	.	.	.	.	.	.	.	.	.	.	.	.	.	.	.	.	.	.
32FFF#/	.	.	.	.	.	.	.	.	.	.	.	.	.	.	.	.	.	.
32FF#/JJJ	.	.	.	.	.	.	.	.	.	.	.	.	.	.	.	.	.	.
32FFF#/LLL	.	.	4r	.	.	.	4r	.	.	.	4r	.	.	.	4r	.	.	.
32DD/ 32FF#	.	.	.	.	.	.	.	.	.	.	.	.	.	.	.	.	.	.
32FFF#/	.	.	.	.	.	.	.	.	.	.	.	.	.	.	.	.	.	.
32DD/ 32FF#	.	.	.	.	.	.	.	.	.	.	.	.	.	.	.	.	.	.
32FFF#/	.	.	.	.	.	.	.	.	.	.	.	.	.	.	.	.	.	.
32DD/ 32FF#	.	.	.	.	.	.	.	.	.	.	.	.	.	.	.	.	.	.
32FFF#/	.	.	.	.	.	.	.	.	.	.	.	.	.	.	.	.	.	.
32DD/ 32FF#	.	.	.	.	.	.	.	.	.	.	.	.	.	.	.	.	.	.
!	!	!	!	!	!	!	!	!	!	!	!	!	!	!	!LO:TX:t=P:problem=niewyraźny zapis w języku włoskim	!	!	!
!	!	!	!LO:TX:a:t=tempo 1mo	!	!	!LO:DY:a:rj:t=pp.	!LO:TX:a:t=tempo 1mo	!	!	!LO:DY:a:rj:t=pp.	!LO:TX:a:t=tempo 1mo	!	!	!LO:DY:a:rj:t=pp.	!LO:TX:a:t=tempo 1mo	!	!	!LO:DY:a:rj
32FFF#/	.	.	8B\	Nie	.	pp	8d\	Nie	.	pp	8f#/	Nie	.	pp	8dd\	Nie	L'a e-	pp
32DD/ 32FF#	.	.	.	.	.	.	.	.	.	.	.	.	.	.	.	.	.	.
32FFF#/	.	.	.	.	.	.	.	.	.	.	.	.	.	.	.	.	.	.
32DD/ 32FF#	.	.	.	.	.	.	.	.	.	.	.	.	.	.	.	.	.	.
32FFF#/	.	.	8B\	[po-	.	.	8d\	[po-	.	.	8f#/	[po-	.	.	8dd\	po-	-qua	.
32DD/ 32FF#	.	.	.	.	.	.	.	.	.	.	.	.	.	.	.	.	.	.
32FFF#/	.	.	.	.	.	.	.	.	.	.	.	.	.	.	.	.	.	.
32DD/JJJ 32FF#	.	.	.	.	.	.	.	.	.	.	.	.	.	.	.	.	.	.
*Xtremolo	*	*	*	*	*	*	*	*	*	*	*	*	*	*	*	*	*	*
=69	=69	=69	=69	=69	=69	=69	=69	=69	=69	=69	=69	=69	=69	=69	=69	=69	=69	=69
4BBB'</	1r	.	4.B\	-ma-	.	.	4.d\	-ma-	.	.	4.f#/	-ma-	.	.	4.dd\	-ma-	san-	.
4r	.	.	.	.	.	.	.	.	.	.	.	.	.	.	.	.	.	.
.	.	.	8B\	-ga	.	.	8d\	-ga	.	.	8f#/	-ga	.	.	8dd\	-ga	-ta	.
2r	.	.	4.B\	i	.	.	4.d\	i	.	.	4.f#/	i	.	.	4.dd\	i	pur	.
.	.	.	8B\	kro-	.	.	8d\	kro-	.	.	8f#/	kro-	.	.	8dd\	kro-	non	.
=70	=70	=70	=70	=70	=70	=70	=70	=70	=70	=70	=70	=70	=70	=70	=70	=70	=70	=70
!	!	!	!LO:S:color=gray	!	!	!	!LO:S:color=gray	!	!	!	!LO:S:color=gray	!	!	!	!LO:S:color=gray	!	!	!
2r	8r	.	(>2B\	-pi-	.	.	(>2d\	-pi-	.	.	(<2f#/	-pi-	.	.	(>2dd\	-pi-	gio-	.
.	8ff#'>\L	.	.	.	.	.	.	.	.	.	.	.	.	.	.	.	.	.
.	8dd'>\	.	.	.	.	.	.	.	.	.	.	.	.	.	.	.	.	.
.	8cc#'>\J	.	.	.	.	.	.	.	.	.	.	.	.	.	.	.	.	.
8r	8b'</	.	8B\)	-dło!	.	.	4d\)	-dło!	.	.	8f#/)	-dło!	.	.	4b\)	-dło!	-va!	.
8f#'>\L	8r	.	8r	.	.	.	.	.	.	.	8r	.	.	.	.	.	.	.
8d'>\	4r	.	8d\L	bo	.	.	8f#\L	bo	.	.	4f#/	bo	.	.	8b\L	bo	Do-	.
8c#'>\J	.	.	8c#\J	.	.	.	8e\J	.	.	.	.	.	.	.	8cc#\J	.	.	.
!!LO:LB:g=original
=71	=71	=71	=71	=71	=71	=71	=71	=71	=71	=71	=71	=71	=71	=71	=71	=71	=71	=71
8B'>\L	1r	.	4B\	u-	.	.	4d\	u-	.	.	4f#/	u-	.	.	4dd'>\	u-	-gli	.
8d'>\	.	.	.	.	.	.	.	.	.	.	.	.	.	.	.	.	.	.
8c#'>\	.	.	4A\	-tra-	.	.	4c#\	-tra-	.	.	4f#/	-tra-	.	.	4dd'>\	-tra-	scan-	.
8A'>\J	.	.	.	.	.	.	.	.	.	.	.	.	.	.	.	.	.	.
8G'>\L	.	.	4G\	-pio-	.	.	4B\	-pio-	.	.	4g/	-pio-	.	.	4dd'>\	-pio-	-giu-	.
8B'>\	.	.	.	.	.	.	.	.	.	.	.	.	.	.	.	.	.	.
8A'>\	.	.	8F#\	-ne	.	.	8A\	-ne	.	.	8a/	-ne	.	.	8dd'>\	-ne	-vi	.
8F#'>\J	.	.	8F#\	stra-	.	.	8A\	stra-	.	.	8a/	stra-	.	.	8dd'>\	stra-	l'in-	.
=72	=72	=72	=72	=72	=72	=72	=72	=72	=72	=72	=72	=72	=72	=72	=72	=72	=72	=72
N(>16E\LL	4r	.	2E\	-szy-	.	.	2B\	-szy-	.	.	2g/	-szy-	.	.	(>2dd^>\	-szy-	-can-	.
16G\	.	.	.	.	.	.	.	.	.	.	.	.	.	.	.	.	.	.
16B\	.	.	.	.	.	.	.	.	.	.	.	.	.	.	.	.	.	.
16e\JJ	.	.	.	.	.	.	.	.	.	.	.	.	.	.	.	.	.	.
4r	16g\LL	.	.	.	.	.	.	.	.	.	.	.	.	.	.	.	.	.
.	16b\	.	.	.	.	.	.	.	.	.	.	.	.	.	.	.	.	.
.	16cc#\	.	.	.	.	.	.	.	.	.	.	.	.	.	.	.	.	.
.	16ee\JJ	.	.	.	.	.	.	.	.	.	.	.	.	.	.	.	.	.
4r	8gg\N)	.	8E\	-dło	.	.	8B\	-dło	.	.	8g/	-dło	.	.	8cc#\)	-dło	-to	.
.	8r	.	8r	.	.	.	8r	.	.	.	8r	.	.	.	8r	.	.	.
8g'>\L	4r	.	8e\	jak	.	.	8e\	jak	.	.	8g/	jak	.	.	8cc#\	jak	o-	.
8e'>\J	.	.	8d\	sta-	.	.	8e\	sta-	.	.	8g/	sta-	.	.	8dd\	sta-	-gni	.
=73	=73	=73	=73	=73	=73	=73	=73	=73	=73	=73	=73	=73	=73	=73	=73	=73	=73	=73
8c#'>\L	1r	.	4c#\	-nę-	.	.	4e\	-nę-	.	.	4g/	-nę-	.	.	4ee\	-nę-	pos-	.
8e'>\	.	.	.	.	.	.	.	.	.	.	.	.	.	.	.	.	.	.
8d'>\	.	.	4B\	-ło,	.	.	4d\	-ło,	.	.	4g/	-ło,	.	.	4ee\	-ło,	-sa a-	.
8B'>\J	.	.	.	.	.	.	.	.	.	.	.	.	.	.	.	.	.	.
8A'>\L	.	.	4A\	tak	.	.	4c#\	tak	.	.	4a/	tak	.	.	4ee\	tak	-vria	.
8c#'>\	.	.	.	.	.	.	.	.	.	.	.	.	.	.	.	.	.	.
8B'>\	.	.	4G\	i	.	.	4c#\	i	.	.	4a/	i	.	.	4ee\	i	per-	.
8G'>\J	.	.	.	.	.	.	.	.	.	.	.	.	.	.	.	.	.	.
!!LO:PB:g=original
=74	=74	=74	=74	=74	=74	=74	=74	=74	=74	=74	=74	=74	=74	=74	=74	=74	=74	=74
!!mixed beam:problem
!	!LO:TX:t=P:problem=mixedbeam	!	!	!	!	!	!	!	!	!	!	!	!	!	!	!	!	!
!	!LO:N:vis=2	!	!	!	!	!	!	!	!	!	!	!	!	!	!	!	!	!
(<2F#\	(>16F#</LL	.	2F#\	sto-	.	.	2c#\	sto-	.	.	2a#X/	sto-	.	.	2ee\	sto-	-du-	.
.	16A#X</	.	.	.	.	.	.	.	.	.	.	.	.	.	.	.	.	.
.	16c#\	.	.	.	.	.	.	.	.	.	.	.	.	.	.	.	.	.
.	16e\JJ	.	.	.	.	.	.	.	.	.	.	.	.	.	.	.	.	.
.	16f#\LL	.	.	.	.	.	.	.	.	.	.	.	.	.	.	.	.	.
.	16a#X\	.	.	.	.	.	.	.	.	.	.	.	.	.	.	.	.	.
.	16cc#\	.	.	.	.	.	.	.	.	.	.	.	.	.	.	.	.	.
.	16ff#\JJ	.	.	.	.	.	.	.	.	.	.	.	.	.	.	.	.	.
8B\)	8b\) 8dd	.	8BB\ 8B	-i	.	.	8d\	-i	.	.	8b/	-i	.	.	8dd\	-i	-to?	.
8r	8r	.	8r	.	.	.	8r	.	.	.	8r	.	.	.	8r	.	.	.
8.BB/L	4r	.	8.BB/	nie-	.	.	8.d\	nie-	.	.	8.f#/	nie-	.	.	8.dd\	nie-	Mu-	.
16BB/Jk	.	.	16BB/	-mo,	.	.	16d\	-mo,	.	.	16f#/	-mo,	.	.	16dd\	-mo,	-to e im-	.
=75	=75	=75	=75	=75	=75	=75	=75	=75	=75	=75	=75	=75	=75	=75	=75	=75	=75	=75
!	!	!LO:DY:rj:t=p.	!	!	!	!LO:HP:a	!	!	!	!LO:HP:a	!	!	!	!LO:HP:a	!	!	!	!LO:HP:a
!	!	!LO:HP:b=2	!	!	!	!LO:DY:a:rj:t=sff.	!	!	!	!LO:DY:a:rj:t=sff.	!	!	!	!LO:DY:a:rj:t=sff.	!	!	!	!LO:DY:a:rj:t=sff.
(<2B\ (>\2d	(>16e#X/LL	p >	2B\	głu-	.	sff >	2d\	głu-	.	sff >	2d/	głu-	.	sff >	2e#X/	głu-	-mo-	sff >
.	16g#X/	]	.	.	.	.	.	.	.	.	.	.	.	.	.	.	.	.
.	16b/	.	.	.	.	.	.	.	.	.	.	.	.	.	.	.	.	.
.	16dd/JJ	.	.	.	.	.	.	.	.	.	.	.	.	.	.	.	.	.
.	16ee#X\LL	.	.	.	.	.	.	.	.	.	.	.	.	.	.	.	.	.
.	16gg#X\	.	.	.	.	.	.	.	.	.	.	.	.	.	.	.	.	.
.	16bb\	.	.	.	.	.	.	.	.	.	.	.	.	.	.	.	.	.
.	16ddd\JJ	.	.	.	.	.	.	.	.	.	.	.	.	.	.	.	.	.
8A#X\)) 8c#\	8ff#\) 8ccc#	.	8A#X\	-cho,	.	]	8c#\	-cho,	.	]	8f#/	-cho,	.	]	8f#/	-cho,	-to	]
8r	8r	.	8r	.	.	.	8r	.	.	.	8r	.	.	.	8r	.	.	.
8.AAn/L	4r	.	8.An\	nie	.	.	8.cn\	nie	.	.	8.e/	nie	.	.	8.ccn\	nie	ei	.
16AA/Jk	.	.	16A\	ru-	.	.	16c\	ru-	.	.	16e/	ru-	.	.	16cc\	ru-	ri-	.
!!LO:LB:g=original
=76	=76	=76	=76	=76	=76	=76	=76	=76	=76	=76	=76	=76	=76	=76	=76	=76	=76	=76
!	!	!LO:HP:b=2	!	!	!	!	!	!	!	!	!	!	!	!	!	!	!	!
!	!	!LO:DY:rj:t=p.	!	!	!	!LO:DY:t=sf.	!	!	!	!LO:DY:t=sf.	!	!	!	!LO:DY:a:t=sf.	!	!	!	!LO:DY:a:t=sf.
(>2A\ (>2cn\	(>16d#X/LL	p >	2An\	-cho-	.	sf	2cn\	-cho-	.	sf	2cn/	-cho-	.	sf	2d#X/	-cho-	-ma-	sf
.	16f#/	.	.	.	.	.	.	.	.	.	.	.	.	.	.	.	.	.
.	16a/	]	.	.	.	.	.	.	.	.	.	.	.	.	.	.	.	.
.	16ccn/JJ	.	.	.	.	.	.	.	.	.	.	.	.	.	.	.	.	.
.	16dd#X\LL	.	.	.	.	.	.	.	.	.	.	.	.	.	.	.	.	.
.	16ff#\	.	.	.	.	.	.	.	.	.	.	.	.	.	.	.	.	.
.	16aa\	.	.	.	.	.	.	.	.	.	.	.	.	.	.	.	.	.
.	16cccn\JJ	.	.	.	.	.	.	.	.	.	.	.	.	.	.	.	.	.
!LO:ACC:color=gray	!	!	!	!	!	!	!	!	!	!	!	!	!	!	!	!	!	!
8G#X\)) 8B\	8ee\) 8bb\	.	8G#X\	-mie,	.	.	8B\	-mie,	.	.	8e/	-mie,	.	.	8e/	-mie,	-ne	.
8r	8r	.	8r	.	.	.	8r	.	.	.	8r	.	.	.	8r	.	.	.
!LO:ACC:color=gray	!	!	!	!	!	!	!	!	!	!	!	!	!	!	!	!	!	!
(>8Gn\L	(>8b\L 8bb\	.	8Gn\	jak-	.	.	8B\	jak-	.	.	8e/	jak-	.	.	8e/	jak-	car-	.
8F#\J	8b\J 8aa\	.	8F#\	-by	.	.	8B\	-by	.	.	8e/	-by	.	.	8f#/	-by	-ne un	.
=77	=77	=77	=77	=77	=77	=77	=77	=77	=77	=77	=77	=77	=77	=77	=77	=77	=77	=77
8E\)	8b\) 8gg	.	4E'>\	ka-	.	.	4B'>\	ka-	.	.	4e'</	ka-	.	.	4g'</	ka-	sas-	.
8r	8r	.	.	.	.	.	.	.	.	.	.	.	.	.	.	.	.	.
8D\	8f#\ 8b 8ff#	.	4D'>\	-mień	.	.	4B'>\	-mień	.	.	4f#'</	-mień	.	.	4b'</	-mień	-so in	.
8r	8r	.	.	.	.	.	.	.	.	.	.	.	.	.	.	.	.	.
8C#X\	8f#\ 8a#X 8ee	.	4C#'>\	śród	.	.	4e'>\	śród	.	.	4f#'</	śród	.	.	4a#X'</	śród	cam-	.
8r	8r	.	.	.	.	.	.	.	.	.	.	.	.	.	.	.	.	.
8BB\	8f#\ 8b 8dd	.	4BB'>\	cmę-	.	.	(>8d\L	cmę-	.	.	4f#'</	cmę-	.	.	4b'</	cmę-	-po	.
!	!	!	!	!	!	!	!LO:TX:B:a:t=h.	!	!	!	!	!	!	!	!	!	!	!
8r	8r	.	.	.	.	.	8B\J)	.	.	.	.	.	.	.	.	.	.	.
=78	=78	=78	=78	=78	=78	=78	=78	=78	=78	=78	=78	=78	=78	=78	=78	=78	=78	=78
8F#\	8f#\ 8a#X\ 8cc#\	.	4F#'>\	-ta]-	.	.	4A#X'>\	-ta]-	.	.	4f#'</	-ta]-	.	.	4cc#'>\	-ta-	san-	.
8r	8r	.	.	.	.	.	.	.	.	.	.	.	.	.	.	.	.	.
4FF#^</	4f#^</	.	4F#'>\	-rza.	.	.	4A#'>\	-rza.	.	.	4f#'</	-rza.	.	.	4f#'</	-rza.	-to	.
!LO:TX:b:i:t=V&colon;S&colon;	!	!	!	!	!	!	!	!	!	!	!	!	!	!	!	!	!	!
2r;>	2r;>	.	2r;>	.	.	.	2r;>	.	.	.	2r;>	.	.	.	2r;>	.	.	.
!!LO:PB:g=original
=79	=79	=79	=79	=79	=79	=79	=79	=79	=79	=79	=79	=79	=79	=79	=79	=79	=79	=79
!	!	!LO:DY:rj:t=ff.	!	!	!	!LO:DY:a:rj	!	!	!	!LO:DY:a:rj	!	!	!	!LO:DY:a:rj	!	!	!	!LO:DY:a:rj
2.BBB/ 2.FF#/ 2.BB/	2.f#\ 2.dd#X\ 2.ff#\	ff	2B\	precz!	va!	ff	2.d#X\	precz!	via	ff	2.f#/	precz	via	ff	2.ff#^>\	precz	via	ff
.	.	.	2r	.	.	.	.	.	.	.	.	.	.	.	.	.	.	.
8B\L 8f#\	8cc#\L 8ee\	.	.	.	.	.	8c#\	stąd	di	.	4f#/	stąd	di	.	8ee\	stąd	di	.
8B\J 8f#\	8dd#\J 8ff#\	.	.	.	.	.	8d#\	na	.	.	.	.	.	.	8ff#\	na	.	.
=80	=80	=80	=80	=80	=80	=80	=80	=80	=80	=80	=80	=80	=80	=80	=80	=80	=80	=80
4F#\ 4f#	4cc#\ 4ee	.	1r	.	.	.	4c#\	la-	qua	.	2.f#/	precz!	qua!	.	4ee\	la-	qua	.
8B\L 8f#	8b\L 8dd#X	.	.	.	.	.	8B\L	-sy,	l'in-	.	.	.	.	.	8dd#X\L	-sy,	l'in-	.
8B\J 8f#	8cc#\J 8ee	.	.	.	.	.	8c#\J	.	.	.	.	.	.	.	8ee\J	.	.	.
4F#\ 4f#	4b\ 4dd#	.	.	.	.	.	4B\	precz	-vo-	.	.	.	.	.	4dd#\	precz	-vo-	.
8B\L 8f#	8a#X\L 8cc#	.	.	.	.	.	8A#X\L	na	-la	.	4r	.	.	.	8cc#\L	na	-la	.
8B\J 8f#	8b\J 8dd#	.	.	.	.	.	8B\J	.	.	.	.	.	.	.	8dd#\J	.	.	.
=81	=81	=81	=81	=81	=81	=81	=81	=81	=81	=81	=81	=81	=81	=81	=81	=81	=81	=81
!	!	!	!	!	!	!	!	!	!	!	!	!	!	!	!LO:S:color=gray	!	!	!
4F#\ 4f#	4a#X/ 4cc#	.	4r	.	.	.	4A#X/	rze-	vi-	.	1r	.	.	.	(>4cc#\	rze-	fra	.
8.FF#/L	8.g#X/L 8.b	.	4G#X\	precz	fra-	.	4G#X/	-ki,	-a!	.	.	.	.	.	4b\)	-ki,	le	.
16FF#/Jk	16a#/Jk 16cc#	.	.	.	.	.	.	.	.	.	.	.	.	.	.	.	.	.
4BBB/ 4BB	4g#/ 4b	.	4G#\	stąd	-gli an-	.	2r	.	.	.	.	.	.	.	4b\	precz	sel-	.
8.FF#/L	8.f#/L 8.a#	.	4F#\	'na	-ti a	.	.	.	.	.	.	.	.	.	4a#X\	na	-ve a	.
16FF#/Jk	16g#/Jk 16b	.	.	.	.	.	.	.	.	.	.	.	.	.	.	.	.	.
=82	=82	=82	=82	=82	=82	=82	=82	=82	=82	=82	=82	=82	=82	=82	=82	=82	=82	=82
4BBB/ 4BB	4f#/ 4a#X	.	4F#\	la-	ram-	.	1r	.	.	.	1r	.	.	.	4a#y/	la-	ram-	.
!	!	!	!	!	!	!	!	!	!	!	!	!	!	!	!LO:ACC:color=gray	!	!	!
8.FF#/L	8.e/L 8.g#X	.	4E\	-sy	-min-	.	.	.	.	.	.	.	.	.	4g#X/	-sy,	-min-	.
16FF#/Jk	16f#/Jk 16a#	.	.	.	.	.	.	.	.	.	.	.	.	.	.	.	.	.
4BBB/ 4BB	4e/ 4g#	.	(>4C#\	precz!	-gar	.	.	.	.	.	.	.	.	.	(<4g#/	precz!	-gar	.
8.FF#/L	4A#X/ 4e 4f#	.	4F#\)	.	.	.	.	.	.	.	.	.	.	.	4f#/)	.	.	.
16FF#/Jk	.	.	.	.	.	.	.	.	.	.	.	.	.	.	.	.	.	.
=83	=83	=83	=83	=83	=83	=83	=83	=83	=83	=83	=83	=83	=83	=83	=83	=83	=83	=83
4BBB/ 4BB	4B'</ 4d#X 4f#	.	4r	.	.	.	4r	.	.	.	4r	.	.	.	4r	.	.	.
2BB\ 2F# 2B^^>	2f#\ 2dd#X 2ff#^^>	.	2B^>\	precz!	va!	.	2d#X^>\	precz	via	.	2f#^>/	precz	via	.	2ff#^>\	precz	via	.
8B\L 8f#	8cc#\L 8ee	.	4r	.	.	.	8c#\L	stąd	di	.	4f#/	stąd	di	.	8ee\L	stąd	di	.
8B\J 8f#	8dd#\J 8ff#	.	.	.	.	.	8d#\J	.	.	.	.	.	.	.	8ff#\J	.	.	.
!!LO:LB:g=original
=84	=84	=84	=84	=84	=84	=84	=84	=84	=84	=84	=84	=84	=84	=84	=84	=84	=84	=84
4F#\ 4f#	4cc#\ 4ee	.	1r	.	.	.	4c#X\	precz	qua	.	2.f#/	precz!	qua!	.	4ee\	precz	qua	.
8B\L 8f#	8b\L 8dd#X	.	.	.	.	.	8B\L	na	l'in-	.	.	.	.	.	8dd#X\L	na	l'in-	.
8B\J 8f#	8cc#\J 8ee	.	.	.	.	.	8c#\J	.	.	.	.	.	.	.	8ee\J	.	.	.
4F#\ 4f#	4b\ 4dd#	.	.	.	.	.	4B\	la-	-vo-	.	.	.	.	.	4dd#\	la-	-vo-	.
8B\L 8f#	8a#X\L 8cc#	.	.	.	.	.	8A#X\L	-sy	-la	.	4r	.	.	.	8cc#\L	-sy	-la	.
8B\J 8f#	8b\J 8dd#	.	.	.	.	.	8B\J	.	.	.	.	.	.	.	8dd#\J	.	.	.
=85	=85	=85	=85	=85	=85	=85	=85	=85	=85	=85	=85	=85	=85	=85	=85	=85	=85	=85
4F#\ 4f#	4a#X\ 4cc#	.	4r	.	.	.	(<4A#X/	precz!	via	.	1r	.	.	.	(>4cc#\	precz!	fra-	.
8FF#/L	8g#X\L 8b	.	4G#X\	precz	fra	.	4G#X/)	.	.	.	.	.	.	.	4b\)	.	-le	.
8FF#/J	8a#\J 8cc#	.	.	.	.	.	.	.	.	.	.	.	.	.	.	.	.	.
4BBB/ 4BB	4g#\ 4b	.	4G#\	stąd	gli an-	.	2r	.	.	.	.	.	.	.	4b\	precz	sel-	.
8FF#/L	8f#\L 8a#	.	4F#\	na	-tri a	.	.	.	.	.	.	.	.	.	4a#X\	na	-ve a	.
8FF#/J	8g#\J 8b	.	.	.	.	.	.	.	.	.	.	.	.	.	.	.	.	.
=86	=86	=86	=86	=86	=86	=86	=86	=86	=86	=86	=86	=86	=86	=86	=86	=86	=86	=86
*	*^	*	*	*	*	*	*	*	*	*	*	*	*	*	*	*	*	*
4BBB/ 4BB	4f#/ 4a#X	2.ryy	.	4F#\	la-	ram-	.	1r	.	.	.	1r	.	.	.	4a#X\	la-	ram-	.
8FF#/L	8e/L 8g#X	.	.	4E\	-sy,	-min-	.	.	.	.	.	.	.	.	.	8g#X\L	-sy	-min-	.
8FF#/J	8f#/J 8a#	.	.	.	.	.	.	.	.	.	.	.	.	.	.	8a#\J	.	.	.
4BBB/ 4BB	4e/ 4g#	.	.	(>4C#\	precz!	-gar	.	.	.	.	.	.	.	.	.	(<4g#/	precz!	-gar	.
8FF#/L	8f#/L	4A#X\	.	4F#\)	.	.	.	.	.	.	.	.	.	.	.	4f#/)	.	.	.
8FF#/J	8e/J	.	.	.	.	.	.	.	.	.	.	.	.	.	.	.	.	.	.
=87	=87	=87	=87	=87	=87	=87	=87	=87	=87	=87	=87	=87	=87	=87	=87	=87	=87	=87	=87
4BBB'</ 4BB	4B'</ 4d#X	4ryy	.	2r	.	.	.	4r	.	.	.	4r	.	.	.	2r	.	.	.
!	!	!	!LO:DY:rj:t=p.	!	!	!	!	!	!	!	!LO:DY:a:rj:t=p.	!	!	!	!LO:DY:a:rj:t=p.	!	!	!	!
(>8BB\L	(>8d#/L	2B\	p	.	.	.	.	8B\	prze-	.	p	8d#X/	prze-	fra	p	.	.	.	.
8C#\J	8e/J	.	.	.	.	.	.	8c#\	-bóg	.	.	8e/	-bóg	le	.	.	.	.	.
!	!	!	!	!	!	!	!	!LO:TX:t=P:problem=początek łuku bez zakończenia	!	!	!	!	!	!	!	!	!	!	!
4D#X\)	4f#/)	.	.	4r	.	.	.	2d#X\	cóż	.	.	(<2f#/	cóż	sel-	.	4r	.	.	.
!	!	!	!	!	!	!	!LO:DY:a:rj:t=p.	!	!	!	!	!	!	!	!	!	!	!	!LO:DY:a:rj:t=p.
8BBB'</L 8BB	4B'</ 4f# 4a	4ryy	.	8BB/	prze-	fra	p	.	.	.	.	.	.	.	.	8a/	prze-	fra	p
8BBB'</J 8BB	.	.	.	8BB/	-bóg	le	.	.	.	.	.	.	.	.	.	8a/	-bóg	le	.
!!LO:PB:g=original
=88	=88	=88	=88	=88	=88	=88	=88	=88	=88	=88	=88	=88	=88	=88	=88	=88	=88	=88	=88
4EE/ 4E	4B/ 4e 4g#X	4ryy	.	4E\	Cóż	sel-	.	8e\	.	.	.	8e/)	.	-ve	.	4g#X/	cóż	sel-	.
.	.	.	.	.	.	.	.	8r@	.	.	.	8r@	.	.	.	.	.	.	.
(>8E\L	(>8g#/L	2e\	.	4E\	to	-ve	.	8E/	za	.	.	8g#X/	za	e	.	4e/	to	-ve,	.
8F#\J	8a/J	.	.	.	.	.	.	8F#/	szka-	.	.	8a/	szka-	fra-	.	.	.	.	.
4G#X\)	4b/)	.	.	4r	.	.	.	2G#X/	-ra-	.	.	2b/	-ra-	-glian-	.	4r	.	.	.
!	!LO:TX:b:t=cres_cen_do.:problem=dynamics with extention lines	!LO:HP:t=cres-cen-do.:ext=ud	!	!	!	!	!	!	!	!	!	!	!	!	!	!	!	!	!
!	!LO:ART:n=3:color=blue	!	!	!	!	!	!	!	!	!	!	!	!	!	!	!	!	!	!
8EE'</L 8E	4e'</ 4b 4ddn^^>	4ryy	<	8E\	za	e	.	.	.	.	.	.	.	.	.	8dd\	za	e	.
8EE'</J 8E	.	.	.	8E\	szka-	fra-	.	.	.	.	.	.	.	.	.	8dd\	szka-	fra-	.
=89	=89	=89	=89	=89	=89	=89	=89	=89	=89	=89	=89	=89	=89	=89	=89	=89	=89	=89	=89
4AAA'</ 4AA	4e/ 4a 4cc#	4ryy	.	4A\	-ra-	-glian-	.	8A/	-da!	.	.	8a/	-da!	-tri,	.	4cc#\	-ra-	-glian-	.
.	.	.	.	.	.	.	.	8r	.	.	.	8r@	.	.	.	.	.	.	.
(>8A\L	(>8cc#/L	2a\	.	4AA/	-da!	-tri	.	8c#\	nie	.	.	8e/	nie	fra	.	4a\	-da!	-tri,	.
8B\J	8dd/J	.	.	.	.	.	.	8d\	od-	.	.	8e/	od-	le	.	.	.	.	.
4c#\)	4ee/)	.	.	4r	.	.	.	2e\	-cho-	.	.	2gn/	-cho-	sel-	.	4r	.	.	.
!	!LO:ART:n=2:color=blue	!	!	!	!	!	!	!	!	!	!	!	!	!	!	!	!	!	!
8AA'</L 8A	4ee'>/ 4gg^^>	4cc#\	.	8A\	nie	fra	.	.	.	.	.	.	.	.	.	8cc#\	nie	fra	.
8AA'</J 8A	.	.	.	8A\	od-	le	.	.	.	.	.	.	.	.	.	8cc#\	od-	le	.
*	*v	*v	*	*	*	*	*	*	*	*	*	*	*	*	*	*	*	*	*
=90	=90	=90	=90	=90	=90	=90	=90	=90	=90	=90	=90	=90	=90	=90	=90	=90	=90	=90
!	!	!	!	!	!	!LO:HP:a	!	!	!	!LO:HP:a	!	!	!	!LO:HP:a	!	!	!	!LO:HP:a
4D\ 4d	4dd'>\ 4ff#	.	4d\	-cho-	sel-	<	8d\	-dzi	.	<	8f#/	-dzi	-ve	<	4dd\	-cho-	sel-	<
.	.	.	.	.	.	.	8r@	.	.	.	8r@	.	.	.	.	.	.	.
8d'>\L	8dd'>\L 8ff#	[	8d\	-dzi,	-ve e	.	8d\	i	.	.	8d/	i	e	.	8dd\	-dzi	-ve e	.
8d'>\J	8dd'>\J 8ee 8gg	.	8d\	nie	fra-	.	8d\	nie	.	.	8d/	nie	fra-	.	8dd\	nie	fra-	.
4d'>\	4dd'>\ 4ff# 4aa	.	4d\	ga-	-glian-	.	4d\	ga-	.	.	4d/	ga-	-glian-	.	4dd\	ga-	-glian-	.
!	!LO:ACC:color=gray	!	!	!	!	!	!	!	!	!	!	!	!	!	!	!	!	!
8D'>\L 8d	4dd'>\ 4ff# 4aa 4cccn	.	8d\	-da.	-tri	.	8d\	-da.	.	.	8d/	-da.	-tri	.	8dd\	-da.	-tri	.
8d'>\J	.	.	8r	.	.	[	8r@	.	.	[	8r@	.	.	[	8r@	.	.	[
=91	=91	=91	=91	=91	=91	=91	=91	=91	=91	=91	=91	=91	=91	=91	=91	=91	=91	=91
!	!	!LO:DY:rj:t=ff.	!	!	!	!LO:DY:b:rj:t=f.	!	!	!	!LO:DY:b:rj:t=f.	!	!	!	!LO:DY:a:rj:t=f.	!	!	!	!LO:DY:b:rj:t=f.
4G^>\ 4g	4..gg\ 4..bb	ff	2G\	[Precz	.	f	(>4g\	[Precz-	Fro-	f	2b\	[Precz	.	f	2gg\	Precz	Fro-	f
4D\ 4d	.	.	.	.	.	.	4d\)	.	.	.	.	.	.	.	.	.	.	.
.	16ff#\ 16aa#X	.	.	.	.	.	.	.	.	.	.	.	.	.	.	.	.	.
4E\ 4e	8.gg\L 8.bb	.	4G\	stąd	.	.	4e\	-stąd	-sti	.	4b\	stąd	.	.	4b\	stąd	-sti	.
.	16ff#\K 16aa#	.	.	.	.	.	.	.	.	.	.	.	.	.	.	.	.	.
4BB\ 4B	8.gg\ 8.bb	.	4B\	na	.	.	4B\	na	dan-	.	4b\	na	.	.	4dd\	na	dan-	.
.	16ff#\Jk 16aa#	.	.	.	.	.	.	.	.	.	.	.	.	.	.	.	.	.
!!LO:LB:g=original
=92	=92	=92	=92	=92	=92	=92	=92	=92	=92	=92	=92	=92	=92	=92	=92	=92	=92	=92
!	!	!	!LO:ART:color=blue	!	!	!	!LO:ART:color=blue	!	!	!	!LO:ART:color=blue	!	!	!	!LO:ART:color=blue	!	!	!
4D\ 4d	4..gg\ 4..bb	.	(>4d\^^>	la-	.	.	(>4d\^^>	la-	-na-	.	2b\^^>	la-	.	.	2gg\^^>	la-	-na-	.
4GG\ 4G	.	.	4G\)	.	.	.	4G\)	.	.	.	.	.	.	.	.	.	.	.
.	16ff#\ 16aa#X	.	.	.	.	.	.	.	.	.	.	.	.	.	.	.	.	.
4BB\ 4B	8.gg\L 8.bb	.	4B\	-sy,	.	.	4B\	-sy,	-to	.	4b\	-sy,	.	.	4b\	-sy,	-to	.
.	16ff#\K 16aa#	.	.	.	.	.	.	.	.	.	.	.	.	.	.	.	.	.
4FF#\ 4F#	8.gg\ 8.bb	.	4F#\	na	.	.	4B\	na	nel-	.	4b\	na	.	.	4dd\	na	nel-	.
.	16ff#\Jk 16aa#	.	.	.	.	.	.	.	.	.	.	.	.	.	.	.	.	.
=93	=93	=93	=93	=93	=93	=93	=93	=93	=93	=93	=93	=93	=93	=93	=93	=93	=93	=93
*	*rep	*	*	*	*	*	*	*	*	*	*	*	*	*	*	*	*	*
!	!	!	!	!	!	!	!LO:ART:color=blue	!	!	!	!LO:ART:color=blue	!	!	!	!LO:ART:color=blue	!	!	!
4GG\ 4G	4..gg\ 4..bb	.	(>4G\	rze-	.	.	2B\^^>	rze-	-l'o-	.	2b\^^>	rze-	.	.	2gg\^^>	rze-	-l'o-	.
4BB/	.	.	4B\)	.	.	.	.	.	.	.	.	.	.	.	.	.	.	.
.	16ff#\ 16aa#X	.	.	.	.	.	.	.	.	.	.	.	.	.	.	.	.	.
4D/	8.gg\L 8.bb	.	(>4D\	-ki,	.	.	4B\	-ki,	-ra	.	4b\	-ki,	.	.	4b\	-ki,	-ra	.
.	16ff#\K 16aa#	.	.	.	.	.	.	.	.	.	.	.	.	.	.	.	.	.
4GG/	8.gg\ 8.bb	.	4G\)	prze-	.	.	4B\	prze-	e-	.	4b\	prze-	.	.	4dd\	prze-	e-	.
.	16ff#\Jk 16aa#	.	.	.	.	.	.	.	.	.	.	.	.	.	.	.	.	.
*	*Xrep	*	*	*	*	*	*	*	*	*	*	*	*	*	*	*	*	*
=94	=94	=94	=94	=94	=94	=94	=94	=94	=94	=94	=94	=94	=94	=94	=94	=94	=94	=94
!	!	!	!	!	!	!	!LO:ART:color=blue	!	!	!	!LO:ART:color=blue	!	!	!	!LO:ART:color=blue	!	!	!
4BB/	8.gg\L 8.bb	.	4BB/	-pad-	.	.	2B\^^>	-pad-	-stre-	.	2b\^^>	-pad-	.	.	2gg\^^>	-pad-	-stre-	.
.	16ff#\K 16aa#X	.	.	.	.	.	.	.	.	.	.	.	.	.	.	.	.	.
8DD/L	8.gg\ 8.bb	.	4D/	.	.	.	.	.	.	.	.	.	.	.	.	.	.	.
8DD/J	.	.	.	.	.	.	.	.	.	.	.	.	.	.	.	.	.	.
.	16ff#\Jk 16aa#	.	.	.	.	.	.	.	.	.	.	.	.	.	.	.	.	.
4GGG^>/ 4GG	8.gg\L 8.bb	.	4G\	-nij,	.	.	4B\	-nij,	-ma,	.	4b\	-nij,	.	.	4gg\	-nij,	-ma,	.
.	16aa#X\K	.	.	.	.	.	.	.	.	.	.	.	.	.	.	.	.	.
4FFF#^>/ 4FF#	8.bb\	.	4F#\	prze-	.	.	4B\	prze-	dan-	.	4b\	prze-	.	.	4gg\	prze-	dan-	.
.	16ccc#\Jk	.	.	.	.	.	.	.	.	.	.	.	.	.	.	.	.	.
=95	=95	=95	=95	=95	=95	=95	=95	=95	=95	=95	=95	=95	=95	=95	=95	=95	=95	=95
!	!	!LO:DY:B:t=sff.	!	!	!	!LO:DY:a:rj:t=ff.	!LO:ART:color=blue	!	!	!LO:DY:a:rj	!LO:ART:color=blue	!	!	!LO:DY:a:rj:t=ff.	!LO:ART:color=blue	!	!	!LO:DY:b:B:t=ff.
*	*ped	*	*	*	*	*	*	*	*	*	*	*	*	*	*	*	*	*
4EEE#X^</ 4EE#X	2.dd\ 2.gg#X 2.bb 2.ddd	sff	[>1E#X	-pad-	.	ff	[>1d^^>	-pad-	-na-	ff	[>1b^^>	-pad-	.	ff	[>1gg#X^^>	-pad-	-na-	ff
*tremolo	*	*	*	*	*	*	*	*	*	*	*	*	*	*	*	*	*	*
8E#X\L 8G#X 8B	.	.	.	.	.	.	.	.	.	.	.	.	.	.	.	.	.	.
8d\	.	.	.	.	.	.	.	.	.	.	.	.	.	.	.	.	.	.
8E#\ 8G# 8B	.	.	.	.	.	.	.	.	.	.	.	.	.	.	.	.	.	.
8d\	.	.	.	.	.	.	.	.	.	.	.	.	.	.	.	.	.	.
8E#\ 8G# 8B	8bb\L	.	.	.	.	.	.	.	.	.	.	.	.	.	.	.	.	.
!LO:TX:b:i:t=V&colon;S&colon;	!	!	!	!	!	!	!	!	!	!	!	!	!	!	!	!	!	!
8d\J	8bb\J	.	.	.	.	.	.	.	.	.	.	.	.	.	.	.	.	.
!!LO:PB:g=original
=96	=96	=96	=96	=96	=96	=96	=96	=96	=96	=96	=96	=96	=96	=96	=96	=96	=96	=96
8E#X\L 8G#X\ 8B\	4ddd\	>	1E#X]	.	.	.	1d]	.	.	.	1b]	.	.	.	1gg#X]	.	.	.
8d\	.	.	.	.	.	.	.	.	.	.	.	.	.	.	.	.	.	.
8E#\ 8G#\ 8B\	8gg#X\L	.	.	.	.	.	.	.	.	.	.	.	.	.	.	.	.	.
8d\J	8gg#\J	.	.	.	.	.	.	.	.	.	.	.	.	.	.	.	.	.
8E#\L 8G#\ 8B\	4bb\	.	.	.	.	.	.	.	.	.	.	.	.	.	.	.	.	.
8d\	.	.	.	.	.	.	.	.	.	.	.	.	.	.	.	.	.	.
8E#\ 8G#\ 8B\	8dd\L	]	.	.	.	.	.	.	.	.	.	.	.	.	.	.	.	.
8d\J	8dd\J	.	.	.	.	.	.	.	.	.	.	.	.	.	.	.	.	.
=97	=97	=97	=97	=97	=97	=97	=97	=97	=97	=97	=97	=97	=97	=97	=97	=97	=97	=97
!	!	!LO:DY:B:t=mf.	!	!	!	!	!	!	!	!	!	!	!	!	!	!	!	!
8F#\L 8B	4ff#\	mf	4F#\	-nij	.	.	4d\	-nij	-to,	.	4b\	nij	.	.	4ff#\	-nij	-to!	.
8d\	.	.	.	.	.	.	.	.	.	.	.	.	.	.	.	.	.	.
8F#\ 8B	8b'>\L	.	4r	.	.	.	4r	.	.	.	4r	.	.	.	4r	.	.	.
8d\J	8b'>\J	.	.	.	.	.	.	.	.	.	.	.	.	.	.	.	.	.
8G\L 8B	4dd'>\	.	4G\	na	.	.	4d\@	na	l'in-	.	4b/@	na	.	.	4dd\	na	l'in-	.
8d\	.	.	.	.	.	.	.	.	.	.	.	.	.	.	.	.	.	.
8G\ 8B	8g'</L	.	4r	.	.	.	4r	.	.	.	4r	.	.	.	4r	.	.	.
8d\J	8g'</J	.	.	.	.	.	.	.	.	.	.	.	.	.	.	.	.	.
=98	=98	=98	=98	=98	=98	=98	=98	=98	=98	=98	=98	=98	=98	=98	=98	=98	=98	=98
8E\L 8B\	4gg'>\	.	4E\	wie-	.	.	4e\@	wie-	-vo-	.	4b/	wie-	.	.	4cc#\	wie-	-vo-	.
8c#\	.	.	.	.	.	.	.	.	.	.	.	.	.	.	.	.	.	.
8E\ 8B\	8cc#'>\L	.	4r	.	.	.	4r	.	.	.	4r	.	.	.	4r	.	.	.
8c#\J	8cc#'>\J	.	.	.	.	.	.	.	.	.	.	.	.	.	.	.	.	.
!	!	!	!	!	!	!	!	!	!	!	!LO:ACC:color=blue	!	!	!	!	!	!	!
8F#\L 8A#X\	4f#'</	.	4F#\	-ki	.	.	4c#\@	-ki	-la,	.	4a#X/	-ki	.	.	4ff#\	-ki	-la,	.
8c#\	.	.	.	.	.	.	.	.	.	.	.	.	.	.	.	.	.	.
8F#\ 8A#\	8ff#'>\L	.	4r	.	.	.	4r	.	.	.	4r	.	.	.	4r	.	.	.
8c#\J	8ff#'>\J	.	.	.	.	.	.	.	.	.	.	.	.	.	.	.	.	.
*Xtremolo	*	*	*	*	*	*	*	*	*	*	*	*	*	*	*	*	*	*
=99	=99	=99	=99	=99	=99	=99	=99	=99	=99	=99	=99	=99	=99	=99	=99	=99	=99	=99
*	*^	*	*	*	*	*	*	*	*	*	*	*	*	*	*	*	*	*
4BB\ 4B\	4b'>\	4ryy	.	8B\	giń!	.	.	8B\	giń!	va!	.	8b\	giń!	.	.	8b\	giń!	va!	.
.	.	.	.	8r	.	.	.	8r	.	.	.	8r	.	.	.	8r	.	.	.
8B\L 8d\	8b/L 8dd/	2f#\	.	4B\	na	.	.	4d\	na	tu	.	4f#/	na	.	.	4dd\	na	tu	.
8B\J 8d\	8b/J 8dd/	.	.	.	.	.	.	.	.	.	.	.	.	.	.	.	.	.	.
!	!LO:ACC:color=blue	!	!	!	!	!	!	!	!	!	!	!LO:ACC:color=blue	!	!	!	!	!	!	!
4F#\ 4c#\	4an/ 4cc#/	.	.	(>4A\	la-	.	.	2f#^<\	la-	fo-	.	2an^</	la-	.	.	(>4cc#\	la-	fo-	.
8DD'</L 8D/	8a/L 8dd/ 8ff#/	4ryy	.	4d\)	.	.	.	.	.	.	.	.	.	.	.	4ff#\)	.	.	.
8DD'</J 8D/	8a/J 8dd/ 8ff#/	.	.	.	.	.	.	.	.	.	.	.	.	.	.	.	.	.	.
=100	=100	=100	=100	=100	=100	=100	=100	=100	=100	=100	=100	=100	=100	=100	=100	=100	=100	=100	=100
4AAA'</ 4AA/	4cc#/ 4ee/	4a\	.	4c#\	-sy,	.	.	8A/	-sy,	-sti	.	8a/	-sy,	.	.	4ee\	-sy,	-sti	.
.	.	.	.	.	.	.	.	8r	.	.	.	8r	.	.	.	.	.	.	.
8B\L 8d\	8b/L 8dd/	2f#\	.	4B\	na	.	.	4d\	na	dan-	.	4f#/	na	.	.	4dd\	na	dan-	.
8B\J 8d\	8b/J 8dd/	.	.	.	.	.	.	.	.	.	.	.	.	.	.	.	.	.	.
4F#\ 4c#\	4a/ 4cc#/	.	.	(>4A\	rze-	.	.	2f#^<\	rze-	-na-	.	2a^</	rze-	.	.	(>4cc#\	rze-	-na-	.
8DD'</L 8D/	8a/L 8dd/ 8ff#/	4ryy	.	4d\)	.	.	.	.	.	.	.	.	.	.	.	4ff#\)	.	.	.
8DD'</J 8D/	8a/J 8dd/ 8ff#/	.	.	.	.	.	.	.	.	.	.	.	.	.	.	.	.	.	.
!!LO:LB:g=original
=101	=101	=101	=101	=101	=101	=101	=101	=101	=101	=101	=101	=101	=101	=101	=101	=101	=101	=101	=101
4AAA/ 4AA	4a/ 4cc#/ 4ee/	4ryy	.	4c#\	ki	.	.	8A/	ki	-to	.	8a/	-ki	.	.	4ee\	-ki	-to	.
.	.	.	.	.	.	.	.	8r	.	.	.	8r	.	.	.	.	.	.	.
8B\L 8d	8b/L 8dd/	2f#\	.	4B\	prze-	.	.	4d\	prze-	nell'	.	4f#/	prze-	.	.	4dd\	prze-	nell'	.
8B\J 8d	8b/J 8dd/	.	.	.	.	.	.	.	.	.	.	.	.	.	.	.	.	.	.
4F#\ 4c#	4a/ 4cc#/	.	.	(>4A\	-pa-	.	.	2f#^>\	-pa-	o-	.	2a^>/	-pa-	.	.	(>4cc#\	-pa-	o-	.
8DD/L 8D	8f#/L 8dd/ 8ff#/	4ryy	.	4d\)	.	.	.	.	.	.	.	.	.	.	.	4ff#\)	.	.	.
8DD/J 8D	8f#/J 8dd/ 8ff#/	.	.	.	.	.	.	.	.	.	.	.	.	.	.	.	.	.	.
=102	=102	=102	=102	=102	=102	=102	=102	=102	=102	=102	=102	=102	=102	=102	=102	=102	=102	=102	=102
*	*	*^	*	*	*	*	*	*	*	*	*	*	*	*	*	*	*	*	*
4AAA/ 4AA	4a/ 4cc#/ 4ee/	4ryy	2.ryy	.	8c#\	-dnij	.	.	8A/	-dnij	-ra	.	8a/	-dnij	.	.	8ee\	-dnij	-ra	.
.	.	.	.	.	8r@	.	.	.	8r@	.	.	.	8r@	.	.	.	8r@	.	.	.
4BBB/ 4BB	4b/ 4dd	8f#\L	.	.	4B\	na	.	.	4B/	na	e-	.	4f#/	na	.	.	4dd\	na	e-	.
.	.	8b\J	.	.	.	.	.	.	.	.	.	.	.	.	.	.	.	.	.	.
4EE/ 4E	2cc#/	4g\ 4b	.	.	(>4E\	wie-	.	.	(<4B/	wie-	-stre-	.	(<4g/	wie-	.	.	2cc#\	wie-	-stre-	.
4FF#/ 4F#	.	8f#\L	4a#X/	.	4F#\)	-ki,	.	.	4A#X/)	.	.	.	4f#/)	.	.	.	.	.	.	.
.	.	8e\J	.	.	.	.	.	.	.	.	.	.	.	.	.	.	.	.	.	.
*	*	*v	*v	*	*	*	*	*	*	*	*	*	*	*	*	*	*	*	*	*
=103	=103	=103	=103	=103	=103	=103	=103	=103	=103	=103	=103	=103	=103	=103	=103	=103	=103	=103	=103
4BBB/ 4BB	4d/ 4b	4ryy	.	8BB/	.	.	.	8B/	-ki,	-ma,	.	8f#/	-ki,	.	.	8b\	-ki,	-ma.	.
.	.	.	.	8r	.	.	.	8r	.	.	.	8r	.	.	.	8r	.	.	.
8B\L 8d	8b/L 8dd	2f#\	.	4B\	na	.	.	4d\	na	ah	.	4f#/	na	.	.	4dd\	na	ah	.
8B\J 8d	8b/J 8dd	.	.	.	.	.	.	.	.	.	.	.	.	.	.	.	.	.	.
4F#\ 4c#	4a/ 4cc#	.	.	(>4A\	la-	.	.	2f#^>\	la-	van-	.	2a^>/	la-	.	.	(>4cc#\	la-	van-	.
8DD/L 8D	8a/L 8dd 8ff#	4ryy	.	4d\)	.	.	.	.	.	.	.	.	.	.	.	4ff#\)	.	.	.
8DD/J 8D	8a/J 8dd 8ff#	.	.	.	.	.	.	.	.	.	.	.	.	.	.	.	.	.	.
=104	=104	=104	=104	=104	=104	=104	=104	=104	=104	=104	=104	=104	=104	=104	=104	=104	=104	=104	=104
4AAA/ 4AA	4a/ 4cc# 4ee	4ryy	.	4c#\	-sy,	.	.	8A/	-sy,	-ne,	.	8a/	-sy,	.	.	4ee\	-sy,	-ne,	.
.	.	.	.	.	.	.	.	8r	.	.	.	8r	.	.	.	.	.	.	.
8B\L 8d	8b/L 8dd	2f#\	.	4B\	na	.	.	4d\	na	tra-	.	4f#/	na	.	.	4dd\	na	tra-	.
8B\J 8d	8b/J 8dd	.	.	.	.	.	.	.	.	.	.	.	.	.	.	.	.	.	.
4F#\ 4c#	4a/ 4cc#	.	.	(>4A\	rze-	.	.	2f#\^>	rze-	-ni-	.	2a^>/	rze-	.	.	(>4cc#\	rze-	-ni-	.
8DD/L 8D	8a/L 8dd 8ff#	4ryy	.	4d\)	.	.	.	.	.	.	.	.	.	.	.	4ff#\)	.	.	.
8DD/J 8D	8a/J 8dd 8ff#	.	.	.	.	.	.	.	.	.	.	.	.	.	.	.	.	.	.
!!LO:PB:g=original
=105	=105	=105	=105	=105	=105	=105	=105	=105	=105	=105	=105	=105	=105	=105	=105	=105	=105	=105	=105
4AAA/ 4AA	4a/ 4cc# 4ee	4ryy	.	4c#\	ki	.	.	8A/	ki	-sei	.	8a/	-ki	.	.	4ee\	-ki	-sei	.
.	.	.	.	.	.	.	.	8r	.	.	.	8r	.	.	.	.	.	.	.
8B\L 8d	8b/L 8dd	2f#\	.	4B\	prze-	.	.	4d\	prze-	per	.	4f#/	prze-	.	.	4dd\	prze-	per	.
8B\J 8d	8b/J 8dd	.	.	.	.	.	.	.	.	.	.	.	.	.	.	.	.	.	.
4F#\ 4c#	4a/ 4cc#	.	.	(>4A\	-pad-	.	.	2f#^<\	-pad-	l'e-	.	2a^>/	-pad-	.	.	(>4cc#\	-pad-	l'e-	.
8DD/L 8D	8f#/L 8dd 8ff#	4ryy	.	4d\)	.	.	.	.	.	.	.	.	.	.	.	4ff#\)	.	.	.
8DD/J 8D	8f#/J 8dd 8ff#	.	.	.	.	.	.	.	.	.	.	.	.	.	.	.	.	.	.
=106	=106	=106	=106	=106	=106	=106	=106	=106	=106	=106	=106	=106	=106	=106	=106	=106	=106	=106	=106
4AAA/ 4AA	4cc#/ 4ee	4a\	.	8c#\	-nij	.	.	8A/	-nij	-ter-	.	8a/	-nij	.	.	8ee\	-nij	-ter-	.
.	.	.	.	8r	.	.	.	8r@	.	.	.	8r@	.	.	.	8r@	.	.	.
4BBB/ 4BB	8b/L 8dd	4f#\	.	4B\	na	.	.	4B/	na	-ni-	.	4f#/	na	.	.	4dd\	na	-ni-	.
.	8b/J 8dd	.	.	.	.	.	.	.	.	.	.	.	.	.	.	.	.	.	.
!	!	!	!	!LO:S:color=red:n=1	!	!	!	!LO:S:color=red:n=1	!	!	!	!LO:S:color=red:n=1	!	!	!	!	!	!	!
4EE/	4cc#/	4g\ 4b	.	(>(<4E\	wie]-	.	.	(>(<4B/	wie]-	-ta	.	(>(<4g/	wie]-	.	.	2cc#\	wie-	-ta	.
4FF#/	4a#X/ 4cc#	4f#\	.	4F#\)	.	.	.	4A#X/)	.	.	.	4f#/)	.	.	.	.	.	.	.
*	*v	*v	*	*	*	*	*	*	*	*	*	*	*	*	*	*	*	*	*
=107	=107	=107	=107	=107	=107	=107	=107	=107	=107	=107	=107	=107	=107	=107	=107	=107	=107	=107
!	!	!LO:DY:B:t=fp.	!	!	!	!	!	!	!	!	!	!	!	!	!	!	!	!
4BBB/	(>4.b\	fp <	4BB/)	-ki,	.	.	4B\)	-ki,	.	.	4d/)	-ki,	.	.	4b\	-ki,	.	.
8BB'>\L 8D\ 8F#\ 8B\	.	.	4r	.	.	.	4r	.	.	.	4r	.	.	.	4r	.	.	.
8BB'>\J 8D\ 8F#\ 8B\	8cc#\	.	.	.	.	.	.	.	.	.	.	.	.	.	.	.	.	.
4BB'>\ 4D\ 4F#\ 4B\	8dd\L	.	4r	.	.	.	4r	.	.	.	4r	.	.	.	4r	.	.	.
.	8ff#\	.	.	.	.	.	.	.	.	.	.	.	.	.	.	.	.	.
4BB'>\ 4D\ 4F#\ 4B\	8bb\	.	8r	.	.	.	8r	.	.	.	8r	.	.	.	8r	.	.	.
.	8ccc#\J	[[	8B\	prze-	ah	.	8B\	prze-	ah	.	8d/	prze-	ah	.	8b\	prze-	ah	.
=108	=108	=108	=108	=108	=108	=108	=108	=108	=108	=108	=108	=108	=108	=108	=108	=108	=108	=108
*^	*	*	*	*	*	*	*	*	*	*	*	*	*	*	*	*	*	*
!	!	!	!LO:DY:rj:t=f.	!	!	!	!LO:DY:a:rj:t=f.	!	!	!	!LO:DY:a:rj:t=f.	!	!	!	!LO:DY:a:rj:t=f.	!	!	!	!LO:DY:a:rj:t=f.
4D/ 4F#/	[<1BB [>1B	4.ddd\	f >	1B	-pad-	van-	f	(<4F#/	-pad-	van-	f	(<4d/	-pad-	van-	f	(>2.dd\	-pad-	van-	f
4E/ 4G/	.	.	.	.	.	.	.	4G/)	.	.	.	4e/)	.	.	.	.	.	.	.
.	.	8ccc#\	.	.	.	.	.	.	.	.	.	.	.	.	.	.	.	.	.
4D/ 4F#/	.	8bb\L	.	.	.	.	.	4F#/	-nij	-ne,	.	4d/	-nij	-ne,	.	.	.	.	.
.	.	8ff#\	.	.	.	.	.	.	.	.	.	.	.	.	.	.	.	.	.
4E/ 4G/	.	8dd\	]	.	.	.	.	4G/	na	sva-	.	4e/	na	sva-	.	4cc#\)	.	.	.
.	.	8cc#\J)	.	.	.	.	.	.	.	.	.	.	.	.	.	.	.	.	.
*v	*v	*	*	*	*	*	*	*	*	*	*	*	*	*	*	*	*	*	*
!!LO:LB:g=original
=109	=109	=109	=109	=109	=109	=109	=109	=109	=109	=109	=109	=109	=109	=109	=109	=109	=109	=109
!	!	!LO:DY:rj:t=p.	!	!	!	!	!	!	!	!	!	!	!	!	!	!	!	!
4BB\] 4D\ 4F#\ 4B\]	(>4.b\	p <	4BB/	.	-ne,	.	2F#/	wie-	-ni-	.	2d/	wie-	-ni-	.	4b\	-nij	-ne	.
8D\L 8F#\ 8B\	.	.	4r	.	.	.	.	.	.	.	.	.	.	.	4r	.	.	.
8D\J 8F#\ 8B\	8cc#\	.	.	.	.	.	.	.	.	.	.	.	.	.	.	.	.	.
4D\ 4F#\ 4B\	8dd\L	.	4r	.	.	.	4B/	-ki	-rei	.	4.d/	-ki	-rei	.	4r	.	.	.
.	8ff#\	.	.	.	.	.	.	.	.	.	.	.	.	.	.	.	.	.
4D\ 4F#\ 4B\	8bb\	.	8r	.	.	.	4F#/	prze-	per	.	.	.	.	.	8r	.	.	.
!	!	!	!	!	!	!LO:DY:a:rj:t=p.	!	!	!	!	!	!	!	!LO:DY:a:rj:t=p.	!	!	!	!LO:DY:a:rj:t=p.
.	8ccc#\J	[	8BB/	na	ah	p	.	.	.	.	8d/	prze-	per-	p	8b\	na	dan-	p
=110	=110	=110	=110	=110	=110	=110	=110	=110	=110	=110	=110	=110	=110	=110	=110	=110	=110	=110
*^	*	*	*	*	*	*	*	*	*	*	*	*	*	*	*	*	*	*
!	!	!	!LO:DY:B:t=f.	!	!	!	!	!	!	!	!LO:DY:a:rj:t=p.	!	!	!	!	!	!	!	!
4D/ 4F#/	[<1BB [>1B	4.ddd\	f >	[>1BB	wiek!	va!	.	(<4F#/	-pad-	l'e-	p	(<4d/	-pad-	-l'e-	.	1b	wie-	-na-	.
4C#/ 4E#X/	.	.	.	.	.	.	.	4E#X/)	.	.	.	4c#/)	.	.	.	.	.	.	.
.	.	8ccc#\	.	.	.	.	.	.	.	.	.	.	.	.	.	.	.	.	.
4D/ 4F#/	.	8bb\L	.	.	.	.	.	4F#/	-nij	-ter-	.	4.d/	-nij	-ter-	.	.	.	.	.
.	.	8ff#\	.	.	.	.	.	.	.	.	.	.	.	.	.	.	.	.	.
4En/ 4G/	.	8dd\	.	.	.	.	.	4En/	na	-ni-	.	.	.	.	.	.	.	.	.
.	.	8cc#\J)	]	.	.	.	.	.	.	.	.	8c#/	na	-ni-	.	.	.	.	.
*v	*v	*	*	*	*	*	*	*	*	*	*	*	*	*	*	*	*	*	*
=111	=111	=111	=111	=111	=111	=111	=111	=111	=111	=111	=111	=111	=111	=111	=111	=111	=111	=111
*ped	*	*	*	*	*	*	*	*	*	*	*	*	*	*	*	*	*	*
1BB_< [<1D [>1F# 1B_>	4b\	.	1BB_>	.	.	.	[<1D	wiek!	-ta	.	[<1B	wiek!	-ta	.	4B/	-ki!	-to!	.
.	8b'</L 8dd/	.	.	.	.	.	.	.	.	.	.	.	.	.	4r	.	.	.
.	8b'</J 8dd/	.	.	.	.	.	.	.	.	.	.	.	.	.	.	.	.	.
.	4f#'</ 4ff#/	.	.	.	.	.	.	.	.	.	.	.	.	.	2r	.	.	.
.	8d'</L 8f#/	.	.	.	.	.	.	.	.	.	.	.	.	.	.	.	.	.
.	8d'</J 8f#/	.	.	.	.	.	.	.	.	.	.	.	.	.	.	.	.	.
=112	=112	=112	=112	=112	=112	=112	=112	=112	=112	=112	=112	=112	=112	=112	=112	=112	=112	=112
4BB\] 4D\] 4F#\] 4B\]	4B'</ 4b/	.	4BB/]	.	.	.	4D/]	.	.	.	4B/]	.	.	.	1r	.	.	.
4rFF	8F#</L 8B</	.	4r	.	.	.	4r	.	.	.	4r	.	.	.	.	.	.	.
.	8F#</J 8B</	.	.	.	.	.	.	.	.	.	.	.	.	.	.	.	.	.
4rFF	4D</ 4d</	.	2r	.	.	.	2r	.	.	.	2r	.	.	.	.	.	.	.
8FF#'</L	4r	.	.	.	.	.	.	.	.	.	.	.	.	.	.	.	.	.
8FF#'</J	.	.	.	.	.	.	.	.	.	.	.	.	.	.	.	.	.	.
=113	=113	=113	=113	=113	=113	=113	=113	=113	=113	=113	=113	=113	=113	=113	=113	=113	=113	=113
!	!	!	!	!	!	!	!LO:TX:b:B:i:t=fine:note=za kreską końcową	!	!	!	!	!	!	!	!LO:TX:a:t=P:problem=fermata nad i pod linią końcową	!	!	!
4BBB'</ 4BB/	1r	.	1r	.	.	.	1r	.	.	.	1r	.	.	.	1r	.	.	.
*Xped	*	*	*	*	*	*	*	*	*	*	*	*	*	*	*	*	*	*
4r	.	.	.	.	.	.	.	.	.	.	.	.	.	.	.	.	.	.
2r	.	.	.	.	.	.	.	.	.	.	.	.	.	.	.	.	.	.
==	==	==	==	==	==	==	==	==	==	==	==	==	==	==	==	==	==	==
*-	*-	*-	*-	*-	*-	*-	*-	*-	*-	*-	*-	*-	*-	*-	*-	*-	*-	*-
!!!system-decoration: [(g1)][(g2)]
!!!RDF**kern: > = above
!!!RDF**kern: < = below
!!!RDF**kern: @ = marked note, color=blue
!!!RDF**kern: j = marked note, color=red
!!!RDF**kern: N = linked
!!!ENC: Anastazja Marusiak
!!!END: 2021-09-23
!!!EED: Jędrzej Mróz
!!!ESR: 2021-10-13
!!!YEC: Copyright 2022 Narodowy Instytut Fryderyka Chopina (https://polishscores.org)
!!!YEM: License CC-BY-4.0 (https://creativecommons.org/licenses/by/4.0)
